;FLAVOR:Marlin
;TIME:2399
;Filament used: 2.98773m
;Layer height: 0.28
;MINX:95.201
;MINY:95.201
;MINZ:0.28
;MAXX:124.799
;MAXY:124.799
;MAXZ:29.96
;Generated with Cura_SteamEngine 5.2.0
M82 ;absolute extrusion mode
; Ender 3 Custom Start G-code
G92 E0 ; Reset Extruder
G28 ; Home all axes
M104 S175 ; Start heating up the nozzle most of the way
M190 S60 ; Start heating the bed, wait until target temperature reached
M109 S200 ; Finish heating the nozzle
G1 Z2.0 F3000 ; Move Z Axis up little to prevent scratching of Heat Bed
G1 X0.1 Y20 Z0.3 F5000.0 ; Move to start position
G1 X0.1 Y200.0 Z0.3 F1500.0 E15 ; Draw the first line
G1 X0.4 Y200.0 Z0.3 F5000.0 ; Move to side a little
G1 X0.4 Y20 Z0.3 F1500.0 E30 ; Draw the second line
G92 E0 ; Reset Extruder
G1 Z2.0 F3000 ; Move Z Axis up little to prevent scratching of Heat Bed
G1 X5 Y20 Z0.3 F5000.0 ; Move over to prevent blob squish
G92 E0
G92 E0
G1 F1500 E-6.5
;LAYER_COUNT:107
;LAYER:0
M107
;MESH:cylinder3.stl
G0 F6000 X108.701 Y124.339 Z0.28
;TYPE:WALL-INNER
G1 F1500 E0
G1 F1200 X109.995 Y124.399 E0.06032
G1 X111.287 Y124.34 E0.12054
G1 X112.611 Y124.16 E0.18276
G1 X113.941 Y123.846 E0.24639
G1 X115.292 Y123.39 E0.31279
G1 X116.605 Y122.793 E0.37995
G1 X117.871 Y122.055 E0.44819
G1 X119.077 Y121.177 E0.51765
G1 X120.179 Y120.187 E0.58663
G1 X121.179 Y119.075 E0.65626
G1 X122.048 Y117.885 E0.72488
G1 X122.787 Y116.618 E0.79318
G1 X123.385 Y115.303 E0.86044
G1 X123.843 Y113.953 E0.92682
G1 X124.158 Y112.622 E0.99051
G1 X124.339 Y111.299 E1.05269
G1 X124.399 Y110.003 E1.1131
G1 X124.34 Y108.707 E1.17351
G1 X124.16 Y107.385 E1.23564
G1 X123.846 Y106.059 E1.29909
G1 X123.39 Y104.706 E1.36557
G1 X122.793 Y103.395 E1.43265
G1 X122.055 Y102.129 E1.50089
G1 X121.177 Y100.923 E1.57035
G1 X120.187 Y99.821 E1.63933
G1 X119.075 Y98.821 E1.70896
G1 X117.885 Y97.952 E1.77758
G1 X116.618 Y97.213 E1.84588
G1 X115.303 Y96.615 E1.91314
G1 X113.953 Y96.157 E1.97952
G1 X112.622 Y95.842 E2.04321
G1 X111.299 Y95.661 E2.10539
G1 X110.005 Y95.601 E2.16571
G1 X108.713 Y95.66 E2.22593
G1 X107.389 Y95.84 E2.28815
G1 X106.059 Y96.154 E2.35178
G1 X104.708 Y96.61 E2.41818
G1 X103.395 Y97.207 E2.48534
G1 X102.129 Y97.945 E2.55358
G1 X100.923 Y98.823 E2.62304
G1 X99.821 Y99.813 E2.69202
G1 X98.821 Y100.925 E2.76165
G1 X97.952 Y102.115 E2.83027
G1 X97.213 Y103.382 E2.89857
G1 X96.615 Y104.697 E2.96583
G1 X96.157 Y106.047 E3.03221
G1 X95.842 Y107.378 E3.0959
G1 X95.661 Y108.701 E3.15808
G1 X95.601 Y109.997 E3.21849
G1 X95.66 Y111.287 E3.27862
G1 X95.84 Y112.611 E3.34084
G1 X96.154 Y113.941 E3.40447
G1 X96.61 Y115.292 E3.47087
G1 X97.207 Y116.605 E3.53803
G1 X97.945 Y117.873 E3.60635
G1 X98.821 Y119.075 E3.6756
G1 X99.811 Y120.177 E3.74458
G1 X100.923 Y121.177 E3.81422
G1 X102.116 Y122.048 E3.883
G1 X103.382 Y122.787 E3.95126
G1 X104.697 Y123.385 E4.01853
G1 X106.047 Y123.843 E4.08491
G1 X107.378 Y124.158 E4.1486
G1 X108.701 Y124.339 E4.21077
G0 F6000 X108.665 Y124.738
;TYPE:WALL-OUTER
G1 F1200 X109.995 Y124.799 E4.27277
G1 X111.323 Y124.739 E4.33467
G1 X112.684 Y124.554 E4.39863
G1 X114.051 Y124.231 E4.46403
G1 X115.439 Y123.762 E4.53225
G1 X116.789 Y123.149 E4.60129
G1 X118.09 Y122.391 E4.6714
G1 X119.329 Y121.488 E4.74279
G1 X120.462 Y120.47 E4.81372
G1 X121.49 Y119.327 E4.8853
G1 X122.383 Y118.104 E4.95581
G1 X123.143 Y116.802 E5.02601
G1 X123.757 Y115.451 E5.09511
G1 X124.228 Y114.063 E5.16336
G1 X124.552 Y112.696 E5.22878
G1 X124.738 Y111.335 E5.29274
G1 X124.799 Y110.003 E5.35483
G1 X124.739 Y108.671 E5.41692
G1 X124.554 Y107.312 E5.48078
G1 X124.231 Y105.949 E5.54601
G1 X123.762 Y104.559 E5.61432
G1 X123.149 Y103.211 E5.68327
G1 X122.391 Y101.91 E5.75338
G1 X121.488 Y100.671 E5.82477
G1 X120.47 Y99.538 E5.8957
G1 X119.327 Y98.51 E5.96728
G1 X118.104 Y97.617 E6.03779
G1 X116.802 Y96.857 E6.10799
G1 X115.451 Y96.243 E6.17709
G1 X114.063 Y95.772 E6.24534
G1 X112.696 Y95.448 E6.31076
G1 X111.335 Y95.262 E6.37472
G1 X110.005 Y95.201 E6.43672
G1 X108.677 Y95.261 E6.49862
G1 X107.316 Y95.446 E6.56258
G1 X105.949 Y95.769 E6.62798
G1 X104.561 Y96.238 E6.6962
G1 X103.211 Y96.851 E6.76524
G1 X101.91 Y97.609 E6.83535
G1 X100.671 Y98.512 E6.90674
G1 X99.538 Y99.53 E6.97767
G1 X98.51 Y100.673 E7.04925
G1 X97.617 Y101.896 E7.11976
G1 X96.857 Y103.198 E7.18996
G1 X96.243 Y104.549 E7.25906
G1 X95.772 Y105.937 E7.32731
G1 X95.448 Y107.304 E7.39273
G1 X95.262 Y108.665 E7.45669
G1 X95.201 Y109.997 E7.51878
G1 X95.261 Y111.323 E7.58059
G1 X95.446 Y112.684 E7.64455
G1 X95.769 Y114.051 E7.70995
G1 X96.238 Y115.439 E7.77817
G1 X96.851 Y116.789 E7.84721
G1 X97.609 Y118.092 E7.9174
G1 X98.51 Y119.327 E7.98859
G1 X99.528 Y120.46 E8.05951
G1 X100.671 Y121.488 E8.1311
G1 X101.896 Y122.383 E8.20174
G1 X103.198 Y123.143 E8.27194
G1 X104.549 Y123.757 E8.34104
G1 X105.937 Y124.228 E8.40929
G1 X107.304 Y124.552 E8.47471
G1 X108.665 Y124.738 E8.53867
G0 F6000 X108.734 Y123.98
;TYPE:SKIN
G1 F1200 X109.997 Y124.038 E8.59754
G1 X111.253 Y123.981 E8.65609
G1 X112.542 Y123.805 E8.71666
G1 X113.828 Y123.501 E8.7782
G1 X115.157 Y123.054 E8.84349
G1 X116.437 Y122.473 E8.90894
G1 X117.665 Y121.758 E8.97511
G1 X118.852 Y120.895 E9.04344
G1 X119.925 Y119.931 E9.11061
G1 X120.899 Y118.847 E9.17847
G1 X121.746 Y117.687 E9.24535
G1 X122.467 Y116.45 E9.31202
G1 X123.049 Y115.169 E9.37754
G1 X123.498 Y113.838 E9.44294
G1 X123.803 Y112.554 E9.5044
G1 X123.98 Y111.266 E9.56493
G1 X124.038 Y110 E9.62395
G1 X123.981 Y108.738 E9.68277
G1 X123.805 Y107.45 E9.7433
G1 X123.501 Y106.173 E9.80443
G1 X123.054 Y104.839 E9.86994
G1 X122.472 Y103.561 E9.93533
G1 X121.753 Y102.327 E10.00183
G1 X120.895 Y101.149 E10.06969
G1 X119.931 Y100.075 E10.13689
G1 X118.847 Y99.101 E10.20475
G1 X117.687 Y98.254 E10.27163
G1 X116.45 Y97.533 E10.3383
G1 X115.169 Y96.951 E10.40382
G1 X113.838 Y96.502 E10.46922
G1 X112.554 Y96.197 E10.53068
G1 X111.266 Y96.02 E10.59121
G1 X110.003 Y95.962 E10.65009
G1 X108.747 Y96.019 E10.70863
G1 X107.458 Y96.195 E10.76921
G1 X106.172 Y96.5 E10.83075
G1 X104.843 Y96.946 E10.89603
G1 X103.561 Y97.527 E10.96157
G1 X102.334 Y98.243 E11.02772
G1 X101.148 Y99.105 E11.09599
G1 X100.075 Y100.069 E11.16315
G1 X99.101 Y101.153 E11.23101
G1 X98.254 Y102.313 E11.29789
G1 X97.533 Y103.55 E11.36456
G1 X96.951 Y104.831 E11.43008
G1 X96.502 Y106.162 E11.49549
G1 X96.197 Y107.446 E11.55694
G1 X96.02 Y108.734 E11.61748
G1 X95.962 Y110 E11.67649
G1 X96.019 Y111.254 E11.73494
G1 X96.195 Y112.542 E11.79548
G1 X96.5 Y113.827 E11.85697
G1 X96.947 Y115.157 E11.92231
G1 X97.528 Y116.437 E11.98776
G1 X98.242 Y117.668 E12.05403
G1 X99.101 Y118.847 E12.12195
G1 X100.065 Y119.921 E12.18915
G1 X101.149 Y120.896 E12.25704
G1 X102.313 Y121.746 E12.32415
G1 X103.548 Y122.467 E12.39074
G1 X104.831 Y123.049 E12.45635
G1 X106.162 Y123.498 E12.52175
G1 X107.446 Y123.803 E12.58321
G1 X108.734 Y123.98 E12.64374
G0 F6000 X108.722 Y124.24
G0 X106.092 Y123.689
G0 X104.756 Y123.236
G0 X103.456 Y122.644
G0 X102.204 Y121.913
G0 X101.024 Y121.053
G0 X100.035 Y120.162
G0 X98.265 Y118.142
G0 X98.637 Y117.871
G1 F1200 X102.128 Y121.362 E12.87363
G0 F6000 X101.855 Y121.733
G0 X103.358 Y122.656
G0 X103.591 Y122.259
G1 F1200 X97.746 Y116.413 E13.25857
G0 F6000 X97.346 Y116.645
G0 X96.838 Y115.55
G0 X97.259 Y115.36
G1 F1200 X104.64 Y122.742 E13.74465
G0 F6000 X105.54 Y123.076
G1 F1200 X96.923 Y114.46 E14.31206
G0 F6000 X96.659 Y113.629
G1 F1200 X106.37 Y123.341 E14.95158
G0 F6000 X107.111 Y123.516
G1 F1200 X96.483 Y112.888 E15.65146
G0 F6000 X96.348 Y112.187
G1 F1200 X107.811 Y123.65 E16.40631
G0 F6000 X108.467 Y123.74
G1 F1200 X96.258 Y111.531 E17.2103
G0 F6000 X96.203 Y110.911
G1 F1200 X109.087 Y123.795 E18.05873
G0 F6000 X109.68 Y123.822
G1 F1200 X96.176 Y110.318 E18.94799
G0 F6000 X96.172 Y109.749
G1 F1200 X110.249 Y123.825 E19.87495
G0 F6000 X110.79 Y123.801
G1 F1200 X96.197 Y109.208 E20.83593
G0 F6000 X96.228 Y108.673
G1 F1200 X111.324 Y123.769 E21.83002
G0 F6000 X111.821 Y123.701
G1 F1200 X96.297 Y108.176 E22.85234
G0 F6000 X96.365 Y107.679
G1 F1200 X112.318 Y123.632 E23.90287
G0 F6000 X112.791 Y123.539
G1 F1200 X96.458 Y107.206 E24.97843
G0 F6000 X96.566 Y106.749
G1 F1200 X113.248 Y123.431 E26.07697
G0 F6000 X113.706 Y123.322
G1 F1200 X96.675 Y106.292 E27.19845
G0 F6000 X96.812 Y105.863
G1 F1200 X114.134 Y123.185 E28.33914
G0 F6000 X114.558 Y123.043
G1 F1200 X96.955 Y105.44 E29.49832
G0 F6000 X97.098 Y105.018
G1 F1200 X114.981 Y122.901 E30.67595
G0 F6000 X115.378 Y122.732
G1 F1200 X97.266 Y104.619 E31.86869
G0 F6000 X97.442 Y104.231
G1 F1200 X115.767 Y122.555 E33.07539
G0 F6000 X116.156 Y122.378
G1 F1200 X97.619 Y103.842 E34.29605
G0 F6000 X97.811 Y103.468
G1 F1200 X116.529 Y122.185 E35.52863
G0 F6000 X116.886 Y121.978
G1 F1200 X98.019 Y103.111 E36.77105
G0 F6000 X98.227 Y102.753
G1 F1200 X117.244 Y121.77 E38.02335
G0 F6000 X117.598 Y121.558
G1 F1200 X98.438 Y102.398 E39.28507
G0 F6000 X98.677 Y102.071
G1 F1200 X117.925 Y121.319 E40.55259
G0 F6000 X118.253 Y121.081
G1 F1200 X98.915 Y101.744 E41.82599
G0 F6000 X99.154 Y101.417
G1 F1200 X118.581 Y120.843 E43.10526
G0 F6000 X118.891 Y120.588
G1 F1200 X99.41 Y101.107 E44.38812
G0 F6000 X99.678 Y100.809
G1 F1200 X119.189 Y120.32 E45.67295
G0 F6000 X119.487 Y120.053
G1 F1200 X99.945 Y100.51 E46.95986
G0 F6000 X100.213 Y100.213
G1 F1200 X119.785 Y119.785 E48.24871
G0 F6000 X120.053 Y119.487
G1 F1200 X100.511 Y99.946 E49.53555
G0 F6000 X100.809 Y99.678
G1 F1200 X120.321 Y119.189 E50.82042
G0 F6000 X120.589 Y118.892
G1 F1200 X101.107 Y99.41 E52.10334
G0 F6000 X101.418 Y99.156
G1 F1200 X120.844 Y118.581 E53.38254
G0 F6000 X121.083 Y118.255
G1 F1200 X101.746 Y98.917 E54.65595
G0 F6000 X102.073 Y98.679
G1 F1200 X121.321 Y117.927 E55.92346
G0 F6000 X121.56 Y117.601
G1 F1200 X102.401 Y98.441 E57.18515
G0 F6000 X102.754 Y98.229
G1 F1200 X121.771 Y117.246 E58.43745
G0 F6000 X121.979 Y116.888
G1 F1200 X103.111 Y98.02 E59.67994
G0 F6000 X103.469 Y97.812
G1 F1200 X122.187 Y116.53 E60.91255
G0 F6000 X122.379 Y116.157
G1 F1200 X103.842 Y97.619 E62.13328
G0 F6000 X104.231 Y97.442
G1 F1200 X122.556 Y115.768 E63.34004
G0 F6000 X122.733 Y115.379
G1 F1200 X104.619 Y97.266 E64.53285
G0 F6000 X105.017 Y97.097
G1 F1200 X122.9 Y114.981 E65.71051
G0 F6000 X123.043 Y114.558
G1 F1200 X105.441 Y96.956 E66.86963
G0 F6000 X105.865 Y96.814
G1 F1200 X123.186 Y114.135 E68.01025
G0 F6000 X123.323 Y113.707
G1 F1200 X106.294 Y96.677 E69.13167
G0 F6000 X106.751 Y96.568
G1 F1200 X123.432 Y113.25 E70.23017
G0 F6000 X123.54 Y112.792
G1 F1200 X107.207 Y96.459 E71.30573
G0 F6000 X107.68 Y96.366
G1 F1200 X123.633 Y112.319 E72.35626
G0 F6000 X123.701 Y111.822
G1 F1200 X108.177 Y96.298 E73.37854
G0 F6000 X108.675 Y96.23
G1 F1200 X123.77 Y111.325 E74.37258
G0 F6000 X123.801 Y110.79
G1 F1200 X109.208 Y96.197 E75.33355
G0 F6000 X109.75 Y96.173
G1 F1200 X123.826 Y110.249 E76.26048
G0 F6000 X123.822 Y109.68
G1 F1200 X110.318 Y96.176 E77.14974
G0 F6000 X110.911 Y96.203
G1 F1200 X123.796 Y109.088 E77.99824
G0 F6000 X123.742 Y108.468
G1 F1200 X111.531 Y96.258 E78.80232
G0 F6000 X112.188 Y96.348
G1 F1200 X123.652 Y107.813 E79.55728
G0 F6000 X123.519 Y107.114
G1 F1200 X112.887 Y96.482 E80.25741
G0 F6000 X113.628 Y96.657
G1 F1200 X123.343 Y106.372 E80.89716
G0 F6000 X123.079 Y105.542
G1 F1200 X114.458 Y96.922 E81.46484
G0 F6000 X115.359 Y97.257
G1 F1200 X122.744 Y104.642 E81.95115
G0 F6000 X123.164 Y104.452
G0 X122.655 Y103.357
G0 X122.255 Y103.588
G1 F1200 X116.408 Y97.741 E82.33619
G0 F6000 X116.641 Y97.343
G0 X118.14 Y98.264
G0 X117.869 Y98.635
M104 S200
G1 F1200 X121.357 Y102.123 E82.56588
G1 F1500 E76.06588
;MESH:NONMESH
G0 F300 X121.357 Y102.123 Z0.56
G0 F6000 X121.728 Y101.852
G0 X122.65 Y103.469
G0 X123.241 Y104.766
G0 X123.692 Y106.103
G0 X124.002 Y107.415
G0 X124.18 Y108.722
G0 X124.239 Y110.003
G0 X124.179 Y111.284
G0 X124 Y112.593
G0 X123.689 Y113.908
G0 X123.236 Y115.244
G0 X122.644 Y116.544
G0 X121.913 Y117.796
G0 X121.054 Y118.974
G0 X120.065 Y120.073
G0 X118.976 Y121.052
G0 X117.782 Y121.921
G0 X116.531 Y122.65
G0 X115.232 Y123.241
G0 X113.897 Y123.692
G0 X112.581 Y124.002
G0 X111.403 Y124.162
G0 X108.724 Y124.24
G1 F1500 E82.56588
G0 F6000 X108.705 Y124.34
;TIME_ELAPSED:100.003135
;LAYER:1
M106 S85
;TYPE:WALL-INNER
;MESH:cylinder3.stl
G1 F1350 X109.999 Y124.399 E82.62619
G1 X111.293 Y124.34 E82.68651
G1 X112.617 Y124.159 E82.74874
G1 X113.947 Y123.845 E82.81237
G1 X115.297 Y123.388 E82.87873
G1 X116.61 Y122.79 E82.94592
G1 X117.871 Y122.056 E83.01386
G1 X119.077 Y121.177 E83.08335
G1 X120.184 Y120.182 E83.15265
G1 X121.179 Y119.075 E83.22196
G1 X122.055 Y117.874 E83.29118
G1 X122.79 Y116.611 E83.35923
G1 X123.388 Y115.298 E83.42641
G1 X123.845 Y113.947 E83.49282
G1 X124.159 Y112.617 E83.55645
G1 X124.34 Y111.295 E83.61858
G1 X124.399 Y110 E83.67894
G1 X124.34 Y108.707 E83.73921
G1 X124.159 Y107.379 E83.80162
G1 X123.845 Y106.053 E83.86508
G1 X123.388 Y104.701 E83.93153
G1 X122.79 Y103.39 E83.99863
G1 X122.055 Y102.129 E84.06659
G1 X121.177 Y100.923 E84.13605
G1 X120.182 Y99.816 E84.20536
G1 X119.075 Y98.821 E84.27467
G1 X117.874 Y97.945 E84.34389
G1 X116.611 Y97.21 E84.41193
G1 X115.297 Y96.612 E84.47916
G1 X113.947 Y96.155 E84.54552
G1 X112.617 Y95.841 E84.60915
G1 X111.295 Y95.66 E84.67129
G1 X110.001 Y95.601 E84.7316
G1 X108.707 Y95.66 E84.79192
G1 X107.383 Y95.841 E84.85414
G1 X106.053 Y96.155 E84.91778
G1 X104.703 Y96.612 E84.98414
G1 X103.39 Y97.21 E85.05132
G1 X102.129 Y97.945 E85.11929
G1 X100.923 Y98.823 E85.18875
G1 X99.816 Y99.818 E85.25806
G1 X98.821 Y100.925 E85.32737
G1 X97.945 Y102.126 E85.39659
G1 X97.21 Y103.389 E85.46463
G1 X96.612 Y104.703 E85.53185
G1 X96.155 Y106.053 E85.59822
G1 X95.841 Y107.383 E85.66185
G1 X95.66 Y108.705 E85.72398
G1 X95.601 Y110 E85.78435
G1 X95.66 Y111.293 E85.84462
G1 X95.841 Y112.617 E85.90684
G1 X96.155 Y113.947 E85.97047
G1 X96.612 Y115.297 E86.03684
G1 X97.21 Y116.611 E86.10406
G1 X97.945 Y117.873 E86.17207
G1 X98.821 Y119.075 E86.24133
G1 X99.816 Y120.182 E86.31063
G1 X100.923 Y121.177 E86.37994
G1 X102.127 Y122.056 E86.44936
G1 X103.389 Y122.79 E86.51734
G1 X104.703 Y123.388 E86.58456
G1 X106.053 Y123.845 E86.65093
G1 X107.383 Y124.159 E86.71456
G1 X108.705 Y124.34 E86.77669
G0 F7500 X108.669 Y124.739
;TYPE:WALL-OUTER
G1 F1350 X109.999 Y124.799 E86.83868
G1 X111.329 Y124.739 E86.90068
G1 X112.69 Y124.553 E86.96464
G1 X114.057 Y124.23 E87.03005
G1 X115.445 Y123.76 E87.09828
G1 X116.794 Y123.146 E87.1673
G1 X118.09 Y122.391 E87.23714
G1 X119.329 Y121.488 E87.30853
G1 X120.467 Y120.465 E87.37978
G1 X121.49 Y119.327 E87.45104
G1 X122.391 Y118.093 E87.52218
G1 X123.146 Y116.795 E87.5921
G1 X123.76 Y115.445 E87.66116
G1 X124.23 Y114.057 E87.7294
G1 X124.553 Y112.69 E87.7948
G1 X124.739 Y111.331 E87.85867
G1 X124.799 Y110 E87.92071
G1 X124.739 Y108.671 E87.98266
G1 X124.553 Y107.306 E88.04681
G1 X124.23 Y105.943 E88.11203
G1 X123.76 Y104.553 E88.18036
G1 X123.146 Y103.206 E88.24929
G1 X122.391 Y101.91 E88.31913
G1 X121.488 Y100.671 E88.39052
G1 X120.465 Y99.533 E88.46177
G1 X119.327 Y98.51 E88.53302
G1 X118.093 Y97.609 E88.60417
G1 X116.795 Y96.854 E88.67409
G1 X115.445 Y96.24 E88.74315
G1 X114.057 Y95.77 E88.81139
G1 X112.69 Y95.447 E88.87679
G1 X111.331 Y95.261 E88.94066
G1 X110.001 Y95.201 E89.00266
G1 X108.671 Y95.261 E89.06465
G1 X107.31 Y95.447 E89.12861
G1 X105.943 Y95.77 E89.19402
G1 X104.555 Y96.24 E89.26225
G1 X103.206 Y96.854 E89.33127
G1 X101.91 Y97.609 E89.40111
G1 X100.671 Y98.512 E89.4725
G1 X99.533 Y99.535 E89.54375
G1 X98.51 Y100.673 E89.61501
G1 X97.609 Y101.907 E89.68615
G1 X96.854 Y103.205 E89.75608
G1 X96.24 Y104.555 E89.82513
G1 X95.77 Y105.943 E89.89337
G1 X95.447 Y107.31 E89.95878
G1 X95.261 Y108.669 E90.02265
G1 X95.201 Y110 E90.08469
G1 X95.261 Y111.329 E90.14663
G1 X95.447 Y112.69 E90.2106
G1 X95.77 Y114.057 E90.276
G1 X96.24 Y115.445 E90.34424
G1 X96.854 Y116.795 E90.4133
G1 X97.609 Y118.092 E90.48318
G1 X98.51 Y119.327 E90.55436
G1 X99.533 Y120.465 E90.62561
G1 X100.671 Y121.488 E90.69687
G1 X101.908 Y122.392 E90.76821
G1 X103.205 Y123.146 E90.83807
G1 X104.555 Y123.76 E90.90712
G1 X105.943 Y124.23 E90.97536
G1 X107.31 Y124.553 E91.04077
G1 X108.669 Y124.739 E91.10464
