;FLAVOR:Marlin
;TIME:3317
;Filament used: 3.43765m
;Layer height: 0.28
;MINX:95.2
;MINY:109.335
;MINZ:0.28
;MAXX:124.8
;MAXY:140.665
;MAXZ:29.96
;Generated with Cura_SteamEngine 5.2.0
M82 ;absolute extrusion mode
; Ender 3 Custom Start G-code
G92 E0 ; Reset Extruder
G28 ; Home all axes
M104 S175 ; Start heating up the nozzle most of the way
M190 S60 ; Start heating the bed, wait until target temperature reached
M109 S200 ; Finish heating the nozzle
G1 Z2.0 F3000 ; Move Z Axis up little to prevent scratching of Heat Bed
G1 X0.1 Y20 Z0.3 F5000.0 ; Move to start position
G1 X0.1 Y200.0 Z0.3 F1500.0 E15 ; Draw the first line
G1 X0.4 Y200.0 Z0.3 F5000.0 ; Move to side a little
G1 X0.4 Y20 Z0.3 F1500.0 E30 ; Draw the second line
G92 E0 ; Reset Extruder
G1 Z2.0 F3000 ; Move Z Axis up little to prevent scratching of Heat Bed
G1 X5 Y20 Z0.3 F5000.0 ; Move over to prevent blob squish
G92 E0
G92 E0
G1 F1500 E-6.5
;LAYER_COUNT:107
;LAYER:0
M107
G0 F6000 X100.185 Y112.6 Z0.28
;TYPE:SKIRT
G1 F1500 E0
G1 F1200 X100.38 Y112.6 E0.00908
G1 X100.381 Y137.4 E1.16387
G1 X100.186 Y137.4 E1.17295
G1 X100.185 Y112.6 E2.32774
G0 F6000 X99.785 Y112.2
G1 F1200 X100.78 Y112.2 E2.37408
G1 X100.781 Y137.8 E3.56612
G1 X99.786 Y137.8 E3.61245
G1 X99.785 Y112.2 E4.80449
G0 F6000 X99.385 Y111.8
G1 F1200 X101.18 Y111.8 E4.88808
G1 X101.181 Y138.2 E6.11737
G1 X99.386 Y138.2 E6.20095
G1 X99.385 Y111.8 E7.43025
G0 F6000 X98.985 Y111.4
G1 F1200 X101.58 Y111.4 E7.55108
G1 X101.581 Y138.6 E8.81763
G1 X98.986 Y138.6 E8.93846
G1 X98.985 Y111.4 E10.20501
G0 F6000 X98.585 Y111
G1 F1200 X101.98 Y111 E10.36309
G1 X101.981 Y139 E11.66689
G1 X98.586 Y139 E11.82498
G1 X98.585 Y111 E13.12877
G0 F6000 X98.185 Y110.6
G1 F1200 X102.38 Y110.6 E13.32411
G1 X102.381 Y139.4 E14.66516
G1 X98.186 Y139.4 E14.8605
G1 X98.185 Y110.6 E16.20154
G0 F6000 X97.785 Y110.2
G1 F1200 X102.78 Y110.2 E16.43413
G1 X102.781 Y139.8 E17.81243
G1 X97.786 Y139.8 E18.04502
G1 X97.785 Y110.2 E19.42332
G1 F1500 E12.92332
G0 F6000 X102.327 Y109.347
G0 X117.672 Y109.347
G0 X117.684 Y110.199
G0 X117.219 Y110.2
G1 F1500 E19.42332
G1 F1200 X122.214 Y110.2 E19.65591
G1 X122.215 Y139.8 E21.03421
G1 X117.22 Y139.8 E21.2668
G1 X117.219 Y110.2 E22.6451
G0 F6000 X117.619 Y110.6
G1 F1200 X121.814 Y110.6 E22.84043
G1 X121.815 Y139.4 E24.18148
G1 X117.62 Y139.4 E24.37682
G1 X117.619 Y110.6 E25.71787
G0 F6000 X118.019 Y111
G1 F1200 X121.414 Y111 E25.87595
G1 X121.415 Y139 E27.17975
G1 X118.02 Y139 E27.33784
G1 X118.019 Y111 E28.64163
G0 F6000 X118.419 Y111.4
G1 F1200 X121.014 Y111.4 E28.76247
G1 X121.015 Y138.6 E30.02901
G1 X118.42 Y138.6 E30.14985
G1 X118.419 Y111.4 E31.41639
G0 F6000 X118.819 Y111.8
G1 F1200 X120.614 Y111.8 E31.49998
G1 X120.615 Y138.2 E32.72927
G1 X118.82 Y138.2 E32.81285
G1 X118.819 Y111.8 E34.04215
G0 F6000 X119.219 Y112.2
G1 F1200 X120.214 Y112.2 E34.08848
G1 X120.215 Y137.8 E35.28052
G1 X119.22 Y137.8 E35.32685
G1 X119.219 Y112.2 E36.5189
G0 F6000 X119.619 Y112.6
G1 F1200 X119.814 Y112.6 E36.52798
G1 X119.815 Y137.4 E37.68277
G1 X119.62 Y137.4 E37.69185
G1 X119.619 Y112.6 E38.84664
G1 F1500 E32.34664
G0 F6000 X117.684 Y110.199
G0 X116.819 Y110.2
;TYPE:SUPPORT-INTERFACE
G1 F1500 E38.84664
G1 F1200 X116.82 Y139.8 E40.22494
G1 X113.728 Y139.8 E40.36892
G1 X113.727 Y110.2 E41.74722
G1 X116.819 Y110.2 E41.89119
G1 F1500 E35.39119
G0 F6000 X116.819 Y109.335
G0 X107.295 Y109.347
G0 X107.137 Y110.199
G0 X106.272 Y110.2
G1 F1500 E41.89119
G1 F1200 X106.273 Y139.8 E43.26949
G1 X103.181 Y139.8 E43.41347
G1 X103.18 Y110.2 E44.79177
G1 X106.272 Y110.2 E44.93575
G0 F6000 X106.071 Y111.151
G1 F1200 X103.381 Y113.842 E45.11292
G0 F6000 X103.38 Y113.562
G1 F1200 X106.072 Y116.254 E45.29019
G0 F6000 X106.071 Y117.939
G1 F1200 X103.381 Y120.63 E45.46737
G0 F6000 X103.38 Y120.35
G1 F1200 X106.072 Y123.042 E45.64464
G0 F6000 X106.071 Y124.727
G1 F1200 X103.381 Y127.418 E45.82181
G0 F6000 X103.38 Y127.139
G1 F1200 X106.073 Y129.831 E45.99912
G0 F6000 X106.072 Y131.515
G1 F1200 X103.381 Y134.206 E46.17633
G0 F6000 X103.38 Y133.927
G1 F1200 X106.073 Y136.62 E46.35367
G0 F6000 X106.072 Y138.303
G1 F1200 X104.776 Y139.599 E46.43901
G0 F6000 X105.658 Y139.599
G1 F1200 X103.38 Y137.321 E46.58902
G0 F6000 X103.381 Y137.6
G1 F1200 X106.072 Y134.909 E46.76623
G0 F6000 X106.073 Y133.225
G1 F1200 X103.38 Y130.533 E46.94353
G0 F6000 X103.381 Y130.812
G1 F1200 X106.072 Y128.121 E47.12074
G0 F6000 X106.073 Y126.437
G1 F1200 X103.38 Y123.745 E47.29804
G0 F6000 X103.381 Y124.024
G1 F1200 X106.071 Y121.333 E47.47522
G0 F6000 X106.072 Y119.648
G1 F1200 X103.38 Y116.956 E47.65249
G0 F6000 X103.381 Y117.236
G1 F1200 X106.071 Y114.545 E47.82967
G0 F6000 X106.072 Y112.86
G1 F1200 X103.61 Y110.399 E47.99176
G1 F1500 E41.49176
G0 F6000 X103.61 Y109.335
G0 X112.704 Y109.347
G0 X112.863 Y110.533
G0 X113.926 Y110.532
G1 F1500 E47.99176
G1 F1200 X116.618 Y113.224 E48.16903
G0 F6000 X116.618 Y114.181
G1 F1200 X113.926 Y116.872 E48.34627
G0 F6000 X113.926 Y117.32
G1 F1200 X116.618 Y120.012 E48.52354
G0 F6000 X116.618 Y120.969
G1 F1200 X113.927 Y123.66 E48.70075
G0 F6000 X113.926 Y124.109
G1 F1200 X116.619 Y126.801 E48.87806
G0 F6000 X116.618 Y127.757
G1 F1200 X113.928 Y130.447 E49.0552
G0 F6000 X113.927 Y130.898
G1 F1200 X116.619 Y133.59 E49.23247
G0 F6000 X116.618 Y134.545
G1 F1200 X113.928 Y137.235 E49.40961
G0 F6000 X113.927 Y137.686
G1 F1200 X115.84 Y139.599 E49.53559
G0 F6000 X114.959 Y139.599
G1 F1200 X116.618 Y137.939 E49.64487
G0 F6000 X116.619 Y136.984
G1 F1200 X113.927 Y134.292 E49.82214
G0 F6000 X113.928 Y133.841
G1 F1200 X116.618 Y131.151 E49.99928
G0 F6000 X116.619 Y130.196
G1 F1200 X113.926 Y127.503 E50.17662
G0 F6000 X113.927 Y127.054
G1 F1200 X116.618 Y124.363 E50.35383
G0 F6000 X116.618 Y123.407
G1 F1200 X113.926 Y120.715 E50.5311
G0 F6000 X113.927 Y120.266
G1 F1200 X116.618 Y117.575 E50.70831
G0 F6000 X116.618 Y116.618
G1 F1200 X113.926 Y113.926 E50.88558
G0 F6000 X113.926 Y113.478
G1 F1200 X116.618 Y110.787 E51.06282
G1 F1500 E44.56282
;MESH:Cylinder3.stl
G0 F6000 X117.684 Y110.786
G0 X117.672 Y109.347
G0 X112.874 Y109.347
G0 X112.716 Y112.05
G0 X108.549 Y139.4
;TYPE:WALL-INNER
G1 F1500 E51.06282
G1 F1200 X111.452 Y139.4 E51.198
G1 X111.451 Y110.6 E52.53904
G1 X108.548 Y110.6 E52.67422
G1 X108.549 Y139.4 E54.01527
G0 F6000 X108.149 Y139.8
;TYPE:WALL-OUTER
G1 F1200 X111.852 Y139.8 E54.1877
G1 X111.851 Y110.2 E55.566
G1 X108.148 Y110.2 E55.73842
G1 X108.149 Y139.8 E57.11672
G0 F6000 X108.419 Y139.53
G0 X108.909 Y139.3
G0 X108.909 Y139.04
;TYPE:SKIN
G1 F1200 X111.092 Y139.04 E57.21837
G1 X111.091 Y110.96 E58.5259
G1 X108.908 Y110.96 E58.62754
G1 X108.909 Y139.04 E59.93507
G0 F6000 X109.423 Y138.839
G1 F1200 X109.108 Y138.524 E59.95581
G0 F6000 X109.108 Y137.958
G1 F1200 X109.989 Y138.839 E60.01383
G0 F6000 X110.554 Y138.839
G1 F1200 X109.108 Y137.392 E60.10908
G0 F6000 X109.108 Y136.827
G1 F1200 X110.892 Y138.61 E60.22653
G0 F6000 X110.892 Y138.044
G1 F1200 X109.108 Y136.261 E60.34397
G0 F6000 X109.108 Y135.695
G1 F1200 X110.892 Y137.479 E60.46145
G0 F6000 X110.892 Y136.913
G1 F1200 X109.108 Y135.13 E60.5789
G0 F6000 X109.108 Y134.564
G1 F1200 X110.892 Y136.347 E60.69635
G0 F6000 X110.892 Y135.782
G1 F1200 X109.108 Y133.998 E60.81383
G0 F6000 X109.108 Y133.433
G1 F1200 X110.892 Y135.216 E60.93127
G0 F6000 X110.892 Y134.65
G1 F1200 X109.108 Y132.867 E61.04872
G0 F6000 X109.108 Y132.301
G1 F1200 X110.892 Y134.085 E61.1662
G0 F6000 X110.892 Y133.519
G1 F1200 X109.108 Y131.736 E61.28364
G0 F6000 X109.108 Y131.17
G1 F1200 X110.892 Y132.953 E61.40109
G0 F6000 X110.892 Y132.388
G1 F1200 X109.108 Y130.604 E61.51857
G0 F6000 X109.108 Y130.039
G1 F1200 X110.892 Y131.822 E61.63602
G0 F6000 X110.892 Y131.256
G1 F1200 X109.108 Y129.473 E61.75346
G0 F6000 X109.108 Y128.907
G1 F1200 X110.892 Y130.691 E61.87094
G0 F6000 X110.892 Y130.125
G1 F1200 X109.108 Y128.342 E61.98839
G0 F6000 X109.108 Y127.776
G1 F1200 X110.892 Y129.559 E62.10584
G0 F6000 X110.892 Y128.993
G1 F1200 X109.108 Y127.21 E62.22328
G0 F6000 X109.108 Y126.644
G1 F1200 X110.892 Y128.428 E62.34076
G0 F6000 X110.892 Y127.862
G1 F1200 X109.108 Y126.079 E62.45821
G0 F6000 X109.108 Y125.513
G1 F1200 X110.892 Y127.296 E62.57565
G0 F6000 X110.892 Y126.731
G1 F1200 X109.107 Y124.947 E62.69317
G0 F6000 X109.107 Y124.381
G1 F1200 X110.892 Y126.165 E62.81068
G0 F6000 X110.892 Y125.599
G1 F1200 X109.107 Y123.815 E62.92819
G0 F6000 X109.107 Y123.25
G1 F1200 X110.892 Y125.034 E63.0457
G0 F6000 X110.891 Y124.467
G1 F1200 X109.107 Y122.684 E63.16315
G0 F6000 X109.107 Y122.118
G1 F1200 X110.891 Y123.902 E63.28063
G0 F6000 X110.891 Y123.336
G1 F1200 X109.107 Y121.553 E63.39808
G0 F6000 X109.107 Y120.987
G1 F1200 X110.891 Y122.77 E63.51552
G0 F6000 X110.891 Y122.205
G1 F1200 X109.107 Y120.421 E63.633
G0 F6000 X109.107 Y119.856
G1 F1200 X110.891 Y121.639 E63.75045
G0 F6000 X110.891 Y121.073
G1 F1200 X109.107 Y119.29 E63.8679
G0 F6000 X109.107 Y118.724
G1 F1200 X110.891 Y120.507 E63.98534
G0 F6000 X110.891 Y119.942
G1 F1200 X109.107 Y118.158 E64.10282
G0 F6000 X109.107 Y117.593
G1 F1200 X110.891 Y119.376 E64.22027
G0 F6000 X110.891 Y118.81
G1 F1200 X109.107 Y117.027 E64.33771
G0 F6000 X109.107 Y116.461
G1 F1200 X110.891 Y118.245 E64.45519
G0 F6000 X110.891 Y117.679
G1 F1200 X109.107 Y115.896 E64.57264
G0 F6000 X109.107 Y115.33
G1 F1200 X110.891 Y117.113 E64.69009
G0 F6000 X110.891 Y116.548
G1 F1200 X109.107 Y114.764 E64.80757
G0 F6000 X109.107 Y114.199
G1 F1200 X110.891 Y115.982 E64.92501
G0 F6000 X110.891 Y115.416
G1 F1200 X109.107 Y113.633 E65.04246
G0 F6000 X109.107 Y113.067
G1 F1200 X110.891 Y114.851 E65.15994
G0 F6000 X110.891 Y114.285
G1 F1200 X109.107 Y112.502 E65.27739
G0 F6000 X109.107 Y111.936
G1 F1200 X110.891 Y113.719 E65.39483
G0 F6000 X110.891 Y113.154
G1 F1200 X109.107 Y111.37 E65.51231
G0 F6000 X109.462 Y111.159
G1 F1200 X110.891 Y112.588 E65.60641
G0 F6000 X110.891 Y112.022
G1 F1200 X110.027 Y111.159 E65.66328
G0 F6000 X110.593 Y111.159
M104 S200
G1 F1200 X110.891 Y111.456 E65.68287
G1 F1500 E59.18287
;MESH:NONMESH
G0 F300 X110.891 Y111.456 Z0.56
G0 F6000 X111.352 Y111.456
G0 X111.279 Y110.772
G0 X108.362 Y110.414
G0 X107.284 Y110.415
G0 X107.125 Y109.347
G0 X102.327 Y109.347
G0 X97.665 Y110.08
;TIME_ELAPSED:89.765624
;LAYER:1
M106 S85
;TYPE:SUPPORT
G1 F1500 E65.68287
G1 F1350 X97.666 Y139.92 E67.07234
G1 X102.362 Y139.92 E67.29101
G1 X102.361 Y110.08 E68.68048
G1 X97.665 Y110.08 E68.89915
G1 F1500 E62.39915
G0 F7500 X97.665 Y109.335
G0 X102 Y109.335
G0 X102 Y110.36
G1 F1500 E68.89915
G1 F1350 X102 Y139.64 E70.26255
G1 X102.082 Y139.64 E70.26637
G1 X102.081 Y110.36 E71.62977
G1 X100 Y110.36 E71.72667
G1 X100 Y139.64 E73.09007
G1 X97.946 Y139.64 E73.18571
G1 X97.945 Y110.36 E74.54911
G1 X98 Y110.36 E74.55167
G1 X98 Y139.64 E75.91507
G1 F1500 E69.41507
G0 F7500 X98 Y140.665
G0 X117.639 Y140.665
G0 X117.639 Y139.92
G1 F1500 E75.91507
G1 F1350 X122.335 Y139.92 E76.13373
G1 X122.334 Y110.08 E77.52321
G1 X117.638 Y110.08 E77.74188
G1 X117.639 Y139.92 E79.13135
G0 F7500 X118 Y139.64
G1 F1350 X118 Y110.36 E80.49475
G1 X117.918 Y110.36 E80.49857
G1 X117.919 Y139.64 E81.86197
G1 X120 Y139.64 E81.95887
G1 X120 Y110.36 E83.32227
G1 X122.054 Y110.36 E83.41791
G1 X122.055 Y139.64 E84.78131
G1 X122 Y139.64 E84.78387
G1 X122 Y110.36 E86.14727
G1 F1500 E79.64727
G0 F7500 X122 Y109.335
G0 X117.557 Y109.335
G0 X117.557 Y110.769
;TYPE:SUPPORT-INTERFACE
G1 F1500 E86.14727
G1 F1350 X116.788 Y110 E86.19791
G0 F7500 X117.405 Y109.999
G1 F1350 X114.527 Y112.877 E86.38743
G0 F7500 X114.527 Y114.527
G1 F1350 X117.557 Y117.557 E86.58696
G0 F7500 X117.557 Y116.636
G1 F1350 X114.527 Y119.665 E86.78646
G0 F7500 X114.527 Y121.316
G1 F1350 X117.557 Y124.346 E86.98599
G0 F7500 X117.557 Y123.424
G1 F1350 X114.528 Y126.453 E87.18546
G0 F7500 X114.527 Y128.104
G1 F1350 X117.558 Y131.135 E87.38505
G0 F7500 X117.557 Y130.212
G1 F1350 X114.529 Y133.24 E87.58445
G0 F7500 X114.528 Y134.893
G1 F1350 X117.558 Y137.923 E87.78398
G0 F7500 X117.557 Y137
G1 F1350 X114.559 Y139.999 E87.98144
G0 F7500 X116.24 Y139.999
G1 F1350 X114.528 Y138.287 E88.09418
G0 F7500 X114.529 Y136.634
G1 F1350 X117.557 Y133.606 E88.29357
G0 F7500 X117.558 Y134.529
G1 F1350 X114.528 Y131.499 E88.49311
G0 F7500 X114.528 Y129.847
G1 F1350 X117.557 Y126.818 E88.69257
G0 F7500 X117.558 Y127.74
G1 F1350 X114.527 Y124.71 E88.89213
G0 F7500 X114.528 Y123.059
G1 F1350 X117.557 Y120.03 E89.0916
G0 F7500 X117.557 Y120.952
G1 F1350 X114.527 Y117.921 E89.29116
G0 F7500 X114.527 Y116.271
G1 F1350 X117.557 Y113.242 E89.49066
G0 F7500 X117.557 Y114.163
G1 F1350 X114.527 Y111.133 E89.69019
G1 F1500 E83.19019
G0 F7500 X114.527 Y109.335
G0 X105.471 Y109.335
G0 X105.471 Y111.751
G1 F1500 E89.69019
G1 F1350 X102.441 Y114.781 E89.88972
G0 F7500 X102.44 Y116.017
G1 F1350 X105.472 Y119.048 E90.08935
G0 F7500 X105.471 Y118.54
G1 F1350 X102.441 Y121.57 E90.28888
G0 F7500 X102.44 Y122.805
G1 F1350 X105.472 Y125.836 E90.48851
G0 F7500 X105.471 Y125.328
G1 F1350 X102.442 Y128.357 E90.68798
G0 F7500 X102.441 Y129.594
G1 F1350 X105.472 Y132.624 E90.88754
G0 F7500 X105.471 Y132.116
G1 F1350 X102.442 Y135.145 E91.087
G0 F7500 X102.441 Y136.382
G1 F1350 X105.472 Y139.413 E91.2866
G0 F7500 X105.471 Y138.904
G1 F1350 X104.376 Y139.999 E91.35871
G0 F7500 X102.663 Y139.998
G1 F1350 X102.441 Y139.776 E91.37333
G0 F7500 X102.442 Y138.539
G1 F1350 X105.471 Y135.51 E91.57279
G0 F7500 X105.472 Y136.019
G1 F1350 X102.441 Y132.988 E91.77239
G0 F7500 X102.442 Y131.751
G1 F1350 X105.471 Y128.722 E91.97185
G0 F7500 X105.472 Y129.23
G1 F1350 X102.441 Y126.2 E92.17142
G0 F7500 X102.441 Y124.964
G1 F1350 X105.471 Y121.934 E92.37095
G0 F7500 X105.472 Y122.442
G1 F1350 X102.44 Y119.411 E92.57058
G0 F7500 X102.441 Y118.175
G1 F1350 X105.471 Y115.145 E92.77011
G0 F7500 X105.472 Y115.654
G1 F1350 X102.44 Y112.623 E92.96974
G0 F7500 X102.441 Y111.387
G1 F1350 X103.829 Y109.999 E93.06114
G0 F7500 X103.211 Y109.999
G1 F1350 X105.472 Y112.26 E93.21003
G1 F1500 E86.71003
;MESH:Cylinder3.stl
G0 F7500 X106.873 Y112.26
G0 X107.073 Y139.4
;TYPE:WALL-INNER
G1 F1500 E93.21003
G1 F1350 X112.928 Y139.4 E93.48266
G1 X112.927 Y110.6 E94.82371
G1 X107.072 Y110.6 E95.09635
G1 X107.073 Y139.4 E96.43739
G0 F7500 X106.673 Y139.8
;TYPE:WALL-OUTER
G1 F1350 X113.328 Y139.8 E96.74728
G1 X113.327 Y110.2 E98.12558
G1 X106.672 Y110.2 E98.43546
G1 X106.673 Y139.8 E99.81376
G0 F7500 X106.943 Y139.53
G0 X107.433 Y139.3
G0 X107.433 Y139.04
;TYPE:SKIN
G1 F1350 X112.568 Y139.04 E100.05287
G1 X112.567 Y110.96 E101.36039
G1 X107.432 Y110.96 E101.5995
G1 X107.433 Y139.04 E102.90702
G0 F7500 X107.433 Y139.3
G0 X111.759 Y139.3
G0 X111.759 Y138.839
G1 F1350 X112.367 Y138.231 E102.94706
G0 F7500 X112.367 Y137.665
G1 F1350 X111.193 Y138.839 E103.02437
G0 F7500 X110.628 Y138.839
G1 F1350 X112.367 Y137.1 E103.13889
G0 F7500 X112.367 Y136.534
G1 F1350 X110.062 Y138.839 E103.29067
G0 F7500 X109.496 Y138.839
G1 F1350 X112.367 Y135.968 E103.47974
G0 F7500 X112.367 Y135.403
G1 F1350 X108.931 Y138.839 E103.706
G0 F7500 X108.365 Y138.839
G1 F1350 X112.367 Y134.837 E103.96954
G0 F7500 X112.367 Y134.271
G1 F1350 X107.799 Y138.839 E104.27035
G0 F7500 X107.632 Y138.44
G1 F1350 X112.367 Y133.706 E104.58213
G0 F7500 X112.367 Y133.14
G1 F1350 X107.632 Y137.874 E104.8939
G0 F7500 X107.632 Y137.308
G1 F1350 X112.367 Y132.574 E105.20568
G0 F7500 X112.367 Y132.009
G1 F1350 X107.632 Y136.743 E105.51745
G0 F7500 X107.632 Y136.177
G1 F1350 X112.367 Y131.443 E105.82923
G0 F7500 X112.367 Y130.877
G1 F1350 X107.632 Y135.611 E106.141
G0 F7500 X107.632 Y135.046
G1 F1350 X112.367 Y130.312 E106.45278
G0 F7500 X112.367 Y129.746
G1 F1350 X107.632 Y134.48 E106.76455
G0 F7500 X107.632 Y133.914
G1 F1350 X112.367 Y129.18 E107.07632
G0 F7500 X112.367 Y128.614
G1 F1350 X107.632 Y133.349 E107.38813
G0 F7500 X107.632 Y132.783
G1 F1350 X112.367 Y128.049 E107.69991
G0 F7500 X112.367 Y127.483
G1 F1350 X107.632 Y132.217 E108.01168
G0 F7500 X107.632 Y131.651
G1 F1350 X112.367 Y126.917 E108.32346
G0 F7500 X112.367 Y126.352
G1 F1350 X107.632 Y131.086 E108.63523
G0 F7500 X107.632 Y130.52
G1 F1350 X112.367 Y125.786 E108.94701
G0 F7500 X112.367 Y125.22
