;FLAVOR:Marlin
;TIME:1225
;Filament used: 0.914194m
;Layer height: 0.28
;MINX:95.201
;MINY:95.197
;MINZ:0.28
;MAXX:124.799
;MAXY:124.803
;MAXZ:29.96
;Generated with Cura_SteamEngine 5.2.0
M82 ;absolute extrusion mode
; Ender 3 Custom Start G-code
G92 E0 ; Reset Extruder
G28 ; Home all axes
M104 S175 ; Start heating up the nozzle most of the way
M190 S60 ; Start heating the bed, wait until target temperature reached
M109 S200 ; Finish heating the nozzle
G1 Z2.0 F3000 ; Move Z Axis up little to prevent scratching of Heat Bed
G1 X0.1 Y20 Z0.3 F5000.0 ; Move to start position
G1 X0.1 Y200.0 Z0.3 F1500.0 E15 ; Draw the first line
G1 X0.4 Y200.0 Z0.3 F5000.0 ; Move to side a little
G1 X0.4 Y20 Z0.3 F1500.0 E30 ; Draw the second line
G92 E0 ; Reset Extruder
G1 Z2.0 F3000 ; Move Z Axis up little to prevent scratching of Heat Bed
G1 X5 Y20 Z0.3 F5000.0 ; Move over to prevent blob squish
G92 E0
G92 E0
G1 F1500 E-6.5
;LAYER_COUNT:107
;LAYER:0
M107
;MESH:Cylinder.stl
G0 F6000 X111.076 Y95.633 Z0.28
;TYPE:WALL-INNER
G1 F1500 E0
G1 F1200 X110.358 Y95.598 E0.03347
G1 X109.642 Y95.597 E0.06681
G1 X108.926 Y95.633 E0.10019
G1 X108.211 Y95.705 E0.13366
G1 X107.502 Y95.812 E0.16704
G1 X106.797 Y95.956 E0.20055
G1 X106.113 Y96.129 E0.2334
G1 X105.416 Y96.342 E0.26734
G1 X104.742 Y96.589 E0.30077
G1 X104.079 Y96.869 E0.33428
G1 X103.431 Y97.18 E0.36775
G1 X102.802 Y97.522 E0.40108
G1 X102.191 Y97.897 E0.43447
G1 X101.596 Y98.303 E0.46801
G1 X101.026 Y98.735 E0.50131
G1 X100.471 Y99.198 E0.53497
G1 X99.945 Y99.687 E0.56841
G1 X99.444 Y100.2 E0.6018
G1 X98.968 Y100.739 E0.63528
G1 X98.522 Y101.299 E0.66862
G1 X98.103 Y101.884 E0.70212
G1 X97.715 Y102.487 E0.73551
G1 X97.355 Y103.11 E0.76902
G1 X97.026 Y103.749 E0.80248
G1 X96.732 Y104.406 E0.836
G1 X96.468 Y105.073 E0.8694
G1 X96.239 Y105.755 E0.9029
G1 X96.045 Y106.448 E0.93641
G1 X95.886 Y107.145 E0.9697
G1 X95.762 Y107.852 E1.00312
G1 X95.673 Y108.567 E1.03667
G1 X95.619 Y109.282 E1.07006
G1 X95.601 Y109.999 E1.10346
G1 X95.619 Y110.716 E1.13685
G1 X95.673 Y111.432 E1.17029
G1 X95.762 Y112.146 E1.20379
G1 X95.886 Y112.852 E1.23717
G1 X96.047 Y113.554 E1.27071
G1 X96.236 Y114.234 E1.30357
G1 X96.468 Y114.927 E1.3376
G1 X96.732 Y115.594 E1.371
G1 X97.026 Y116.251 E1.40452
G1 X97.354 Y116.888 E1.43788
G1 X97.713 Y117.51 E1.47132
G1 X98.102 Y118.114 E1.50478
G1 X98.522 Y118.699 E1.53831
G1 X98.968 Y119.259 E1.57165
G1 X99.444 Y119.798 E1.60513
G1 X99.947 Y120.313 E1.63865
G1 X100.472 Y120.802 E1.67206
G1 X101.021 Y121.262 E1.70541
G1 X101.594 Y121.697 E1.73891
G1 X102.186 Y122.1 E1.77225
G1 X102.8 Y122.476 E1.80578
G1 X103.431 Y122.82 E1.83924
G1 X104.078 Y123.132 E1.87269
G1 X104.753 Y123.418 E1.90683
G1 X105.413 Y123.655 E1.93948
G1 X106.1 Y123.868 E1.97297
G1 X106.796 Y124.044 E2.0064
G1 X107.5 Y124.188 E2.03986
G1 X108.209 Y124.295 E2.07325
G1 X108.924 Y124.367 E2.10671
G1 X109.64 Y124.403 E2.14009
G1 X110.358 Y124.403 E2.17353
G1 X111.076 Y124.367 E2.207
G1 X111.789 Y124.295 E2.24037
G1 X112.5 Y124.188 E2.27385
G1 X113.203 Y124.044 E2.30727
G1 X113.9 Y123.868 E2.34074
G1 X114.572 Y123.66 E2.37349
G1 X115.26 Y123.411 E2.40756
G1 X115.921 Y123.131 E2.44099
G1 X116.569 Y122.82 E2.47446
G1 X117.2 Y122.476 E2.50792
G1 X117.812 Y122.102 E2.54132
G1 X118.406 Y121.697 E2.5748
G1 X118.977 Y121.265 E2.60814
G1 X119.526 Y120.802 E2.64158
G1 X120.054 Y120.313 E2.67509
G1 X120.555 Y119.798 E2.70855
G1 X121.03 Y119.261 E2.74193
G1 X121.478 Y118.698 E2.77543
G1 X121.898 Y118.115 E2.80889
G1 X122.287 Y117.511 E2.84234
G1 X122.644 Y116.89 E2.8757
G1 X122.974 Y116.251 E2.90918
G1 X123.268 Y115.597 E2.94257
G1 X123.536 Y114.914 E2.97674
G1 X123.759 Y114.247 E3.00949
G1 X123.955 Y113.549 E3.04324
G1 X124.114 Y112.855 E3.0764
G1 X124.238 Y112.146 E3.10991
G1 X124.327 Y111.434 E3.14332
G1 X124.381 Y110.716 E3.17685
G1 X124.399 Y109.999 E3.21025
G1 X124.381 Y109.282 E3.24365
G1 X124.327 Y108.567 E3.27703
G1 X124.238 Y107.852 E3.31058
G1 X124.114 Y107.146 E3.34396
G1 X123.953 Y106.444 E3.3775
G1 X123.761 Y105.755 E3.4108
G1 X123.532 Y105.073 E3.4443
G1 X123.268 Y104.406 E3.47771
G1 X122.974 Y103.749 E3.51122
G1 X122.645 Y103.11 E3.54469
G1 X122.285 Y102.487 E3.57819
G1 X121.897 Y101.884 E3.61158
G1 X121.478 Y101.299 E3.64509
G1 X121.032 Y100.739 E3.67842
G1 X120.556 Y100.2 E3.71191
G1 X120.055 Y99.687 E3.7453
G1 X119.526 Y99.196 E3.7789
G1 X118.978 Y98.738 E3.81216
G1 X118.404 Y98.302 E3.84572
G1 X117.812 Y97.898 E3.8791
G1 X117.2 Y97.524 E3.91249
G1 X116.569 Y97.18 E3.94596
G1 X115.921 Y96.869 E3.97943
G1 X115.26 Y96.589 E4.01285
G1 X114.572 Y96.338 E4.04696
G1 X113.901 Y96.133 E4.07963
G1 X113.202 Y95.956 E4.1132
G1 X112.5 Y95.812 E4.14657
G1 X111.789 Y95.705 E4.18005
G1 X111.076 Y95.633 E4.21342
G1 F1500 E-2.28658
G0 F6000 X111.068 Y95.734
G0 X108.571 Y95.83
G0 X106.834 Y96.113
G0 X104.802 Y96.738
G0 X102.882 Y97.661
G0 X101.127 Y98.861
G0 X99.562 Y100.309
G0 X98.235 Y101.974
G0 X97.171 Y103.819
G0 X96.541 Y105.425
G0 X95.984 Y107.166
G1 F1500 E4.21342
G0 F6000 X95.494 Y107.066
M104 S200
;TYPE:WALL-OUTER
G1 F1200 X95.366 Y107.792 E4.24775
G1 X95.275 Y108.527 E4.28223
G1 X95.219 Y109.262 E4.31656
G1 X95.201 Y109.999 E4.35088
G1 X95.219 Y110.736 E4.38521
G1 X95.275 Y111.472 E4.41958
G1 X95.366 Y112.206 E4.45402
G1 X95.494 Y112.932 E4.48835
G1 X95.659 Y113.652 E4.52274
G1 X95.854 Y114.351 E4.55654
G1 X96.092 Y115.064 E4.59154
G1 X96.363 Y115.75 E4.62588
G1 X96.666 Y116.425 E4.66033
G1 X97.002 Y117.08 E4.69461
G1 X97.371 Y117.719 E4.72897
G1 X97.772 Y118.339 E4.76335
G1 X98.203 Y118.94 E4.79779
G1 X98.662 Y119.516 E4.83209
G1 X99.151 Y120.07 E4.86649
G1 X99.667 Y120.599 E4.90091
G1 X100.207 Y121.102 E4.93527
G1 X100.771 Y121.575 E4.96954
G1 X101.36 Y122.022 E5.00397
G1 X101.969 Y122.436 E5.03826
G1 X102.6 Y122.822 E5.07271
G1 X103.249 Y123.176 E5.10713
G1 X103.913 Y123.496 E5.14145
G1 X104.607 Y123.79 E5.17655
G1 X105.286 Y124.035 E5.21016
G1 X105.992 Y124.253 E5.24457
G1 X106.706 Y124.434 E5.27886
G1 X107.43 Y124.582 E5.31327
G1 X108.159 Y124.692 E5.3476
G1 X108.894 Y124.766 E5.382
G1 X109.63 Y124.803 E5.41632
G1 X110.368 Y124.803 E5.45068
G1 X111.106 Y124.766 E5.48509
G1 X111.839 Y124.692 E5.51939
G1 X112.57 Y124.582 E5.55381
G1 X113.292 Y124.434 E5.58813
G1 X114.008 Y124.253 E5.62252
G1 X114.699 Y124.04 E5.65619
G1 X115.406 Y123.783 E5.69122
G1 X116.085 Y123.496 E5.72555
G1 X116.751 Y123.176 E5.75995
G1 X117.4 Y122.822 E5.79437
G1 X118.029 Y122.438 E5.82869
G1 X118.64 Y122.022 E5.86311
G1 X119.227 Y121.577 E5.89741
G1 X119.791 Y121.102 E5.93174
G1 X120.333 Y120.599 E5.96618
G1 X120.849 Y120.07 E6.00059
G1 X121.336 Y119.518 E6.03486
G1 X121.797 Y118.94 E6.06929
G1 X122.228 Y118.341 E6.10365
G1 X122.629 Y117.719 E6.13811
G1 X122.996 Y117.082 E6.17234
G1 X123.334 Y116.425 E6.20675
G1 X123.637 Y115.752 E6.24111
G1 X123.912 Y115.05 E6.27622
G1 X124.141 Y114.365 E6.30985
G1 X124.343 Y113.648 E6.34454
G1 X124.506 Y112.934 E6.37864
G1 X124.634 Y112.206 E6.41306
G1 X124.725 Y111.474 E6.44741
G1 X124.781 Y110.736 E6.48187
G1 X124.799 Y109.999 E6.5162
G1 X124.781 Y109.262 E6.55053
G1 X124.725 Y108.527 E6.58485
G1 X124.634 Y107.792 E6.61934
G1 X124.506 Y107.066 E6.65366
G1 X124.341 Y106.346 E6.68806
G1 X124.143 Y105.637 E6.72234
G1 X123.908 Y104.936 E6.75676
G1 X123.637 Y104.25 E6.79111
G1 X123.334 Y103.575 E6.82556
G1 X122.996 Y102.918 E6.85996
G1 X122.627 Y102.279 E6.89432
G1 X122.228 Y101.659 E6.92865
G1 X121.797 Y101.058 E6.96309
G1 X121.338 Y100.482 E6.99739
G1 X120.849 Y99.928 E7.03179
G1 X120.335 Y99.401 E7.06607
G1 X119.79 Y98.896 E7.10067
G1 X119.227 Y98.425 E7.13485
G1 X118.638 Y97.978 E7.16928
G1 X118.029 Y97.562 E7.20362
G1 X117.4 Y97.178 E7.23794
G1 X116.751 Y96.824 E7.27236
G1 X116.085 Y96.504 E7.30677
G1 X115.406 Y96.217 E7.34109
G1 X114.699 Y95.958 E7.37615
G1 X114.009 Y95.747 E7.40975
G1 X113.292 Y95.566 E7.44419
G1 X112.57 Y95.418 E7.4785
G1 X111.839 Y95.308 E7.51293
G1 X111.106 Y95.234 E7.54723
G1 X110.368 Y95.198 E7.58164
G1 X109.632 Y95.197 E7.61591
G1 X108.896 Y95.234 E7.65022
G1 X108.161 Y95.308 E7.68462
G1 X107.432 Y95.418 E7.71895
G1 X106.708 Y95.566 E7.75336
G1 X106.005 Y95.743 E7.78711
G1 X105.288 Y95.963 E7.82204
G1 X104.596 Y96.217 E7.85636
G1 X103.915 Y96.504 E7.89077
G1 X103.249 Y96.824 E7.92518
G1 X102.602 Y97.176 E7.95948
G1 X101.973 Y97.561 E7.99382
G1 X101.362 Y97.978 E8.02826
G1 X100.777 Y98.422 E8.06246
G1 X100.207 Y98.898 E8.09704
G1 X99.665 Y99.401 E8.13147
G1 X99.151 Y99.928 E8.16575
G1 X98.662 Y100.482 E8.20016
G1 X98.203 Y101.058 E8.23445
G1 X97.772 Y101.659 E8.26889
G1 X97.373 Y102.279 E8.30322
G1 X97.004 Y102.918 E8.33758
G1 X96.666 Y103.575 E8.37198
G1 X96.363 Y104.25 E8.40643
G1 X96.092 Y104.936 E8.44078
G1 X95.857 Y105.637 E8.47521
G1 X95.657 Y106.35 E8.50969
G1 X95.494 Y107.066 E8.54388
G1 F1500 E2.04388
;MESH:NONMESH
G0 F300 X95.494 Y107.066 Z0.56
G0 F6000 X95.984 Y107.166
G0 X95.771 Y109.641
G0 X95.833 Y111.416
G0 X96.131 Y113.201
G0 X96.619 Y114.872
G0 X97.494 Y116.812
G0 X98.651 Y118.602
G0 X100.06 Y120.198
G0 X101.688 Y121.567
G0 X103.505 Y122.677
G0 X105.464 Y123.503
G0 X107.529 Y124.03
G0 X109.644 Y124.242
G0 X111.769 Y124.135
G0 X113.856 Y123.713
G0 X115.854 Y122.985
G0 X117.724 Y121.967
G0 X118.684 Y121.239
G0 X119.977 Y120.247
G1 F1500 E8.54388
G0 F6000 X120.054 Y120.313
;TIME_ELAPSED:16.133238
;LAYER:1
M106 S85
;TYPE:WALL-INNER
;MESH:Cylinder.stl
G1 F1185 X120.555 Y119.798 E8.57734
G1 X121.03 Y119.261 E8.61072
G1 X121.478 Y118.698 E8.64422
G1 X121.898 Y118.115 E8.67768
G1 X122.287 Y117.511 E8.71113
G1 X122.644 Y116.89 E8.74449
G1 X122.974 Y116.251 E8.77798
G1 X123.273 Y115.587 E8.81189
G1 X123.536 Y114.914 E8.84553
G1 X123.759 Y114.248 E8.87823
G1 X123.953 Y113.553 E8.91183
G1 X124.117 Y112.844 E8.94572
G1 X124.238 Y112.147 E8.97866
G1 X124.329 Y111.423 E9.01264
G1 X124.381 Y110.717 E9.0456
G1 X124.399 Y109.999 E9.07905
G1 X124.381 Y109.282 E9.11244
G1 X124.327 Y108.567 E9.14583
G1 X124.238 Y107.852 E9.17938
G1 X124.114 Y107.146 E9.21276
G1 X123.953 Y106.444 E9.2463
G1 X123.761 Y105.755 E9.2796
G1 X123.532 Y105.073 E9.3131
G1 X123.268 Y104.406 E9.3465
G1 X122.974 Y103.749 E9.38002
G1 X122.645 Y103.11 E9.41348
G1 X122.285 Y102.487 E9.44699
G1 X121.897 Y101.884 E9.48038
G1 X121.478 Y101.299 E9.51388
G1 X121.032 Y100.739 E9.54722
G1 X120.556 Y100.2 E9.5807
G1 X120.055 Y99.687 E9.61409
G1 X119.526 Y99.196 E9.6477
G1 X118.978 Y98.738 E9.68096
G1 X118.404 Y98.302 E9.71452
G1 X117.812 Y97.898 E9.74789
G1 X117.2 Y97.524 E9.78129
G1 X116.569 Y97.18 E9.81476
G1 X115.921 Y96.869 E9.84822
G1 X115.26 Y96.589 E9.88165
G1 X114.572 Y96.338 E9.91575
G1 X113.901 Y96.133 E9.94842
G1 X113.202 Y95.956 E9.982
G1 X112.5 Y95.812 E10.01537
G1 X111.789 Y95.705 E10.04885
G1 X111.076 Y95.633 E10.08222
G1 X110.358 Y95.598 E10.11569
G1 X109.642 Y95.597 E10.14903
G1 X108.926 Y95.633 E10.18241
G1 X108.211 Y95.705 E10.21587
G1 X107.502 Y95.812 E10.24926
G1 X106.797 Y95.956 E10.28277
G1 X106.113 Y96.129 E10.31562
G1 X105.416 Y96.342 E10.34956
G1 X104.742 Y96.589 E10.38298
G1 X104.079 Y96.869 E10.41649
G1 X103.431 Y97.18 E10.44996
G1 X102.802 Y97.522 E10.4833
G1 X102.191 Y97.897 E10.51668
G1 X101.596 Y98.303 E10.55022
G1 X101.026 Y98.735 E10.58353
G1 X100.471 Y99.198 E10.61718
G1 X99.945 Y99.687 E10.65062
G1 X99.444 Y100.2 E10.68401
G1 X98.968 Y100.739 E10.7175
G1 X98.522 Y101.299 E10.75083
G1 X98.103 Y101.884 E10.78434
G1 X97.715 Y102.487 E10.81773
G1 X97.355 Y103.11 E10.85123
G1 X97.026 Y103.749 E10.8847
G1 X96.727 Y104.415 E10.91869
G1 X96.468 Y105.073 E10.95162
G1 X96.239 Y105.755 E10.98512
G1 X96.047 Y106.445 E11.01847
G1 X95.883 Y107.156 E11.05244
G1 X95.762 Y107.851 E11.08529
G1 X95.671 Y108.577 E11.11936
G1 X95.619 Y109.281 E11.15223
G1 X95.601 Y109.999 E11.18568
G1 X95.619 Y110.716 E11.21908
G1 X95.673 Y111.432 E11.25251
G1 X95.762 Y112.146 E11.28601
G1 X95.886 Y112.852 E11.31939
G1 X96.047 Y113.554 E11.35293
G1 X96.236 Y114.234 E11.38579
G1 X96.468 Y114.927 E11.41982
G1 X96.732 Y115.594 E11.45322
G1 X97.026 Y116.251 E11.48674
G1 X97.354 Y116.888 E11.5201
G1 X97.713 Y117.51 E11.55354
G1 X98.102 Y118.114 E11.587
G1 X98.522 Y118.699 E11.62053
G1 X98.968 Y119.259 E11.65387
G1 X99.444 Y119.798 E11.68735
G1 X99.947 Y120.313 E11.72087
G1 X100.472 Y120.802 E11.75428
G1 X101.021 Y121.262 E11.78763
G1 X101.594 Y121.697 E11.82113
G1 X102.186 Y122.1 E11.85448
G1 X102.8 Y122.476 E11.888
G1 X103.431 Y122.82 E11.92147
G1 X104.078 Y123.132 E11.95491
G1 X104.753 Y123.418 E11.98905
G1 X105.413 Y123.655 E12.0217
G1 X106.1 Y123.868 E12.05519
G1 X106.796 Y124.044 E12.08862
G1 X107.5 Y124.188 E12.12208
G1 X108.209 Y124.295 E12.15547
G1 X108.924 Y124.367 E12.18893
G1 X109.64 Y124.403 E12.22231
G1 X110.358 Y124.403 E12.25575
G1 X111.076 Y124.367 E12.28922
G1 X111.789 Y124.295 E12.32259
G1 X112.5 Y124.188 E12.35607
G1 X113.203 Y124.044 E12.38949
G1 X113.9 Y123.868 E12.42296
G1 X114.572 Y123.66 E12.45572
G1 X115.26 Y123.411 E12.48978
G1 X115.921 Y123.131 E12.52321
G1 X116.569 Y122.82 E12.55668
G1 X117.2 Y122.476 E12.59014
G1 X117.812 Y122.102 E12.62354
G1 X118.406 Y121.697 E12.65702
G1 X118.977 Y121.265 E12.69036
G1 X119.526 Y120.802 E12.7238
G1 X120.054 Y120.313 E12.75731
G1 F1500 E6.25731
G0 F7500 X119.977 Y120.247
G0 X121.555 Y118.315
G0 X122.504 Y116.814
G0 X123.385 Y114.859
G0 X123.96 Y112.811
G0 X124.22 Y110.708
G0 X124.167 Y108.584
G0 X123.797 Y106.485
G0 X123.12 Y104.468
G0 X122.148 Y102.571
G0 X120.908 Y100.843
G0 X119.42 Y99.316
G0 X117.894 Y98.162
G0 X115.879 Y96.96
G1 F1500 E12.75731
G0 F7500 X116.085 Y96.504
;TYPE:WALL-OUTER
G1 F1185 X115.406 Y96.217 E12.79164
G1 X114.699 Y95.958 E12.8267
G1 X114.009 Y95.747 E12.86029
G1 X113.292 Y95.566 E12.89473
G1 X112.57 Y95.418 E12.92905
G1 X111.839 Y95.308 E12.96347
G1 X111.106 Y95.234 E12.99777
G1 X110.368 Y95.198 E13.03218
G1 X109.632 Y95.197 E13.06645
G1 X108.896 Y95.234 E13.10076
G1 X108.161 Y95.308 E13.13516
G1 X107.432 Y95.418 E13.16949
G1 X106.708 Y95.566 E13.2039
G1 X106.005 Y95.743 E13.23766
G1 X105.288 Y95.963 E13.27258
G1 X104.596 Y96.217 E13.3069
G1 X103.915 Y96.504 E13.34132
G1 X103.249 Y96.824 E13.37572
G1 X102.602 Y97.176 E13.41002
G1 X101.973 Y97.561 E13.44436
G1 X101.362 Y97.978 E13.4788
G1 X100.777 Y98.422 E13.513
G1 X100.207 Y98.898 E13.54758
G1 X99.665 Y99.401 E13.58201
G1 X99.151 Y99.928 E13.61629
G1 X98.662 Y100.482 E13.6507
G1 X98.203 Y101.058 E13.68499
G1 X97.772 Y101.659 E13.71943
G1 X97.373 Y102.279 E13.75376
G1 X97.004 Y102.918 E13.78812
G1 X96.666 Y103.575 E13.82253
G1 X96.358 Y104.26 E13.8575
G1 X96.092 Y104.936 E13.89132
G1 X95.857 Y105.637 E13.92575
G1 X95.659 Y106.346 E13.96003
G1 X95.491 Y107.077 E13.99495
G1 X95.366 Y107.792 E14.02875
G1 X95.273 Y108.537 E14.06371
G1 X95.219 Y109.261 E14.09752
G1 X95.201 Y109.999 E14.13189
G1 X95.219 Y110.736 E14.16622
G1 X95.275 Y111.472 E14.20059
G1 X95.366 Y112.206 E14.23503
G1 X95.494 Y112.932 E14.26936
G1 X95.659 Y113.652 E14.30375
G1 X95.854 Y114.351 E14.33754
G1 X96.092 Y115.064 E14.37255
G1 X96.363 Y115.75 E14.40689
G1 X96.666 Y116.425 E14.44134
G1 X97.002 Y117.08 E14.47562
G1 X97.371 Y117.719 E14.50998
G1 X97.772 Y118.339 E14.54436
G1 X98.203 Y118.94 E14.5788
G1 X98.662 Y119.516 E14.6131
G1 X99.151 Y120.07 E14.6475
G1 X99.667 Y120.599 E14.68191
G1 X100.207 Y121.102 E14.71628
G1 X100.771 Y121.575 E14.75055
G1 X101.36 Y122.022 E14.78498
G1 X101.969 Y122.436 E14.81927
G1 X102.6 Y122.822 E14.85372
G1 X103.249 Y123.176 E14.88814
G1 X103.913 Y123.496 E14.92246
G1 X104.607 Y123.79 E14.95756
G1 X105.286 Y124.035 E14.99117
G1 X105.992 Y124.253 E15.02557
G1 X106.706 Y124.434 E15.05987
G1 X107.43 Y124.582 E15.09428
G1 X108.159 Y124.692 E15.12861
G1 X108.894 Y124.766 E15.16301
G1 X109.63 Y124.803 E15.19732
G1 X110.368 Y124.803 E15.23169
G1 X111.106 Y124.766 E15.2661
G1 X111.839 Y124.692 E15.3004
G1 X112.57 Y124.582 E15.33482
G1 X113.292 Y124.434 E15.36914
G1 X114.008 Y124.253 E15.40353
G1 X114.699 Y124.04 E15.4372
G1 X115.406 Y123.783 E15.47223
G1 X116.085 Y123.496 E15.50655
G1 X116.751 Y123.176 E15.54096
G1 X117.4 Y122.822 E15.57538
G1 X118.029 Y122.438 E15.6097
G1 X118.64 Y122.022 E15.64412
G1 X119.227 Y121.577 E15.67842
G1 X119.791 Y121.102 E15.71275
