;FLAVOR:Marlin
;TIME:1557
;Filament used: 0.930905m
;Layer height: 0.2
;MINX:84.017
;MINY:84.017
;MINZ:0.2
;MAXX:135.984
;MAXY:135.983
;MAXZ:30
;Generated with Cura_SteamEngine 5.2.0
M82 ;absolute extrusion mode
; Ender 3 Custom Start G-code
G92 E0 ; Reset Extruder
G28 ; Home all axes
M104 S175 ; Start heating up the nozzle most of the way
M190 S60 ; Start heating the bed, wait until target temperature reached
M109 S200 ; Finish heating the nozzle
G1 Z2.0 F3000 ; Move Z Axis up little to prevent scratching of Heat Bed
G1 X0.1 Y20 Z0.3 F5000.0 ; Move to start position
G1 X0.1 Y200.0 Z0.3 F1500.0 E15 ; Draw the first line
G1 X0.4 Y200.0 Z0.3 F5000.0 ; Move to side a little
G1 X0.4 Y20 Z0.3 F1500.0 E30 ; Draw the second line
G92 E0 ; Reset Extruder
G1 Z2.0 F3000 ; Move Z Axis up little to prevent scratching of Heat Bed
G1 X5 Y20 Z0.3 F5000.0 ; Move over to prevent blob squish
G92 E0
G92 E0
G1 F1500 E-6.5
;LAYER_COUNT:150
;LAYER:0
M107
G0 F6000 X91.943 Y91.313 Z0.2
;TYPE:SKIRT
G1 F1500 E0
G1 F1200 X92.577 Y90.729 E0.02867
G1 X93.347 Y90.052 E0.06277
G1 X93.852 Y89.638 E0.08449
G1 X94.332 Y89.272 E0.10457
G1 X94.929 Y88.838 E0.12912
G1 X95.481 Y88.449 E0.15158
G1 X95.999 Y88.105 E0.17226
G1 X96.635 Y87.718 E0.19702
G1 X97.636 Y87.146 E0.23537
G1 X98.2 Y86.846 E0.25661
G1 X98.931 Y86.493 E0.28361
G1 X99.841 Y86.088 E0.31674
G1 X100.547 Y85.803 E0.34206
G1 X101.595 Y85.421 E0.37916
G1 X102.322 Y85.178 E0.40466
G1 X102.99 Y84.984 E0.42779
G1 X104.012 Y84.722 E0.46289
G1 X104.789 Y84.544 E0.4894
G1 X105.458 Y84.418 E0.51204
G1 X106.42 Y84.268 E0.54442
G1 X107.268 Y84.159 E0.57286
G1 X107.897 Y84.102 E0.59387
G1 X108.709 Y84.051 E0.62093
G1 X109.588 Y84.018 E0.65018
G1 X110.252 Y84.017 E0.67227
G1 X111.087 Y84.041 E0.70005
G1 X111.914 Y84.085 E0.7276
G1 X112.556 Y84.142 E0.74903
G1 X113.453 Y84.249 E0.77908
G1 X114.243 Y84.364 E0.80563
G1 X114.909 Y84.486 E0.82815
G1 X115.888 Y84.697 E0.86146
G1 X116.658 Y84.884 E0.88782
G1 X117.302 Y85.067 E0.91008
G1 X118.325 Y85.392 E0.94578
G1 X119.006 Y85.627 E0.96975
G1 X119.695 Y85.897 E0.99436
G1 X120.743 Y86.349 E1.03232
G1 X121.581 Y86.739 E1.06306
G1 X122.127 Y87.016 E1.08342
G1 X122.693 Y87.328 E1.10492
G1 X123.131 Y87.582 E1.12176
G1 X123.891 Y88.039 E1.15126
G1 X124.592 Y88.499 E1.17914
G1 X125.507 Y89.156 E1.21661
G1 X126.093 Y89.598 E1.24102
G1 X126.561 Y89.971 E1.26093
G1 X127.05 Y90.395 E1.28245
G1 X128.011 Y91.272 E1.32573
G1 X128.68 Y91.938 E1.35712
G1 X129.457 Y92.785 E1.39535
G1 X129.944 Y93.343 E1.41999
G1 X130.352 Y93.84 E1.44137
G1 X130.779 Y94.403 E1.46487
G1 X131.47 Y95.365 E1.50427
G1 X131.844 Y95.92 E1.52653
G1 X132.197 Y96.492 E1.54889
G1 X132.586 Y97.16 E1.5746
G1 X132.914 Y97.745 E1.5969
G1 X133.172 Y98.234 E1.61529
G1 X133.506 Y98.928 E1.64091
G1 X133.911 Y99.837 E1.67401
G1 X134.201 Y100.556 E1.69979
G1 X134.582 Y101.604 E1.73688
G1 X134.822 Y102.322 E1.76206
G1 X135.016 Y102.99 E1.7852
G1 X135.278 Y104.012 E1.82029
G1 X135.458 Y104.802 E1.84724
G1 X135.582 Y105.461 E1.86954
G1 X135.731 Y106.417 E1.90172
G1 X135.834 Y107.211 E1.92835
G1 X135.895 Y107.869 E1.95033
G1 X135.949 Y108.731 E1.97906
G1 X135.982 Y109.591 E2.00768
G1 X135.984 Y110.257 E2.02983
G1 X135.961 Y111.07 E2.05688
G1 X135.915 Y111.92 E2.0852
G1 X135.858 Y112.55 E2.10623
G1 X135.752 Y113.443 E2.13614
G1 X135.635 Y114.253 E2.16336
G1 X135.516 Y114.902 E2.18531
G1 X135.308 Y115.87 E2.21824
G1 X135.118 Y116.649 E2.24491
G1 X134.933 Y117.303 E2.26752
G1 X134.607 Y118.328 E2.30329
G1 X134.376 Y118.996 E2.3268
G1 X134.103 Y119.694 E2.35173
G1 X133.65 Y120.744 E2.38976
G1 X133.261 Y121.581 E2.42046
G1 X132.984 Y122.127 E2.44082
G1 X132.614 Y122.791 E2.46611
G1 X132 Y123.825 E2.5061
G1 X131.502 Y124.59 E2.53646
G1 X131.022 Y125.264 E2.56398
G1 X130.402 Y126.093 E2.59842
G1 X130.039 Y126.55 E2.61783
G1 X129.662 Y126.988 E2.63705
G1 X129.129 Y127.58 E2.66354
G1 X128.668 Y128.077 E2.68609
G1 X128.062 Y128.681 E2.71455
G1 X127.201 Y129.47 E2.75339
G1 X126.653 Y129.948 E2.77758
G1 X126.185 Y130.334 E2.79775
G1 X125.723 Y130.687 E2.81709
G1 X125.073 Y131.161 E2.84385
G1 X124.524 Y131.548 E2.86619
G1 X123.992 Y131.9 E2.8874
G1 X123.356 Y132.286 E2.91215
G1 X122.325 Y132.874 E2.95163
G1 X121.766 Y133.172 E2.97269
G1 X121.072 Y133.506 E2.99831
G1 X120.163 Y133.911 E3.03141
G1 X119.444 Y134.201 E3.0572
G1 X118.396 Y134.582 E3.09428
G1 X117.678 Y134.822 E3.11946
G1 X117.01 Y135.016 E3.1426
G1 X115.988 Y135.278 E3.17769
G1 X115.211 Y135.456 E3.2042
G1 X114.542 Y135.582 E3.22685
G1 X113.58 Y135.732 E3.25923
G1 X112.732 Y135.841 E3.28767
G1 X112.103 Y135.898 E3.30867
G1 X111.291 Y135.949 E3.33573
G1 X110.412 Y135.982 E3.36499
G1 X109.748 Y135.983 E3.38707
G1 X108.913 Y135.959 E3.41486
G1 X108.086 Y135.915 E3.4424
G1 X107.444 Y135.858 E3.46384
G1 X106.547 Y135.751 E3.49388
G1 X105.757 Y135.636 E3.52044
G1 X105.091 Y135.514 E3.54296
G1 X104.112 Y135.303 E3.57627
G1 X103.342 Y135.116 E3.60262
G1 X102.698 Y134.933 E3.62489
G1 X101.675 Y134.608 E3.66059
G1 X100.994 Y134.373 E3.68455
G1 X100.305 Y134.103 E3.70916
G1 X99.257 Y133.651 E3.74712
G1 X98.419 Y133.261 E3.77787
G1 X97.873 Y132.984 E3.79823
G1 X97.214 Y132.617 E3.82332
G1 X96.177 Y132.002 E3.86342
G1 X95.397 Y131.494 E3.89438
G1 X94.507 Y130.855 E3.93082
G1 X93.939 Y130.428 E3.95445
G1 X93.462 Y130.048 E3.97474
G1 X93.022 Y129.67 E3.99403
G1 X92.428 Y129.136 E4.0206
G1 X91.93 Y128.675 E4.04317
G1 X91.312 Y128.055 E4.07228
G1 X90.543 Y127.215 E4.11016
G1 X90.087 Y126.694 E4.13319
G1 X89.681 Y126.202 E4.15441
G1 X89.211 Y125.584 E4.18023
G1 X88.497 Y124.587 E4.22102
G1 X88.089 Y123.975 E4.24548
G1 X87.714 Y123.356 E4.26955
G1 X87.126 Y122.325 E4.30903
G1 X86.828 Y121.766 E4.3301
G1 X86.494 Y121.072 E4.35571
G1 X86.089 Y120.163 E4.38881
G1 X85.799 Y119.444 E4.4146
G1 X85.418 Y118.396 E4.45169
G1 X85.178 Y117.678 E4.47687
G1 X84.984 Y117.01 E4.5
G1 X84.722 Y115.988 E4.53509
G1 X84.544 Y115.211 E4.56161
G1 X84.418 Y114.542 E4.58425
G1 X84.268 Y113.58 E4.61663
G1 X84.158 Y112.725 E4.6453
G1 X84.1 Y112.088 E4.66658
G1 X84.05 Y111.284 E4.69337
G1 X84.017 Y110.407 E4.72256
G1 X84.017 Y109.744 E4.74461
G1 X84.041 Y108.912 E4.7723
G1 X84.085 Y108.086 E4.79981
G1 X84.142 Y107.444 E4.82124
G1 X84.249 Y106.547 E4.85129
G1 X84.364 Y105.757 E4.87784
G1 X84.486 Y105.091 E4.90036
G1 X84.697 Y104.112 E4.93367
G1 X84.88 Y103.357 E4.95951
G1 X85.067 Y102.697 E4.98233
G1 X85.393 Y101.672 E5.0181
G1 X85.624 Y101.004 E5.04161
G1 X85.897 Y100.306 E5.06654
G1 X86.35 Y99.256 E5.10457
G1 X86.739 Y98.419 E5.13527
G1 X87.016 Y97.873 E5.15563
G1 X87.328 Y97.307 E5.17713
G1 X87.582 Y96.869 E5.19397
G1 X88.046 Y96.099 E5.22387
G1 X88.503 Y95.403 E5.25156
G1 X89.148 Y94.504 E5.28836
G1 X89.579 Y93.931 E5.31221
G1 X89.961 Y93.452 E5.33259
G1 X90.398 Y92.946 E5.35483
G1 X91.268 Y91.992 E5.39777
G1 X91.943 Y91.313 E5.42961
G0 F6000 X92.214 Y91.608
G1 F1200 X93.062 Y90.832 E5.46785
G1 X93.61 Y90.354 E5.49203
G1 X94.097 Y89.954 E5.51299
G1 X94.568 Y89.595 E5.53269
G1 X95.159 Y89.165 E5.557
G1 X95.711 Y88.776 E5.57946
G1 X96.211 Y88.445 E5.5994
G1 X96.834 Y88.066 E5.62366
G1 X97.835 Y87.494 E5.662
G1 X98.378 Y87.204 E5.68248
G1 X99.094 Y86.859 E5.70891
G1 X100.004 Y86.454 E5.74204
G1 X100.684 Y86.179 E5.76644
G1 X101.732 Y85.797 E5.80354
G1 X102.446 Y85.558 E5.82858
G1 X103.09 Y85.371 E5.85089
G1 X104.112 Y85.109 E5.88598
G1 X104.875 Y84.935 E5.91201
G1 X105.52 Y84.814 E5.93383
G1 X106.844 Y84.613 E5.97837
G1 X107.316 Y84.556 E5.99419
G1 X107.923 Y84.501 E6.01446
G1 X109.064 Y84.434 E6.05247
G1 X109.601 Y84.417 E6.07034
G1 X110.241 Y84.416 E6.09163
G1 X111.076 Y84.44 E6.11941
G1 X111.89 Y84.484 E6.14653
G1 X112.509 Y84.54 E6.1672
G1 X113.406 Y84.647 E6.19724
G1 X114.183 Y84.759 E6.22335
G1 X114.824 Y84.877 E6.24503
G1 X115.803 Y85.088 E6.27834
G1 X116.56 Y85.272 E6.30425
G1 X117.18 Y85.449 E6.3257
G1 X118.528 Y85.882 E6.37279
G1 X118.873 Y86.004 E6.38496
G1 X119.537 Y86.265 E6.40869
G1 X120.585 Y86.717 E6.44665
G1 X121.41 Y87.1 E6.4769
G1 X121.936 Y87.367 E6.49652
G1 X122.493 Y87.674 E6.51768
G1 X122.931 Y87.928 E6.53452
G1 X123.684 Y88.381 E6.56374
G1 X124.359 Y88.825 E6.59062
G1 X125.266 Y89.475 E6.62773
G1 X125.852 Y89.917 E6.65214
G1 X126.303 Y90.277 E6.67133
G1 X126.78 Y90.69 E6.69232
G1 X127.741 Y91.567 E6.73559
G1 X128.386 Y92.209 E6.76586
G1 X129.155 Y93.048 E6.80371
G1 X129.642 Y93.606 E6.82835
G1 X130.036 Y94.085 E6.84898
G1 X130.454 Y94.636 E6.87198
G1 X131.145 Y95.598 E6.91137
G1 X131.505 Y96.133 E6.93282
G1 X131.852 Y96.694 E6.95476
G1 X132.237 Y97.356 E6.98023
G1 X132.565 Y97.941 E7.00254
G1 X132.813 Y98.412 E7.02024
G1 X133.14 Y99.091 E7.04531
G1 X133.545 Y100 E7.07841
G1 X133.825 Y100.692 E7.10324
G1 X134.206 Y101.74 E7.14033
G1 X134.442 Y102.446 E7.16509
G1 X134.629 Y103.09 E7.18739
G1 X134.891 Y104.112 E7.22248
G1 X135.068 Y104.888 E7.24895
G1 X135.187 Y105.523 E7.27044
G1 X135.336 Y106.479 E7.30262
G1 X135.437 Y107.26 E7.32881
G1 X135.496 Y107.894 E7.34999
G1 X135.55 Y108.756 E7.37872
G1 X135.582 Y109.604 E7.40694
G1 X135.584 Y110.246 E7.4283
G1 X135.561 Y111.059 E7.45535
G1 X135.516 Y111.896 E7.48323
G1 X135.461 Y112.502 E7.50347
G1 X135.355 Y113.395 E7.53338
G1 X135.239 Y114.192 E7.56016
G1 X135.124 Y114.818 E7.58133
G1 X134.916 Y115.786 E7.61426
G1 X134.731 Y116.552 E7.64047
G1 X134.551 Y117.182 E7.66226
G1 X134.225 Y118.207 E7.69804
G1 X133.999 Y118.863 E7.72112
G1 X133.736 Y119.536 E7.74515
G1 X133.283 Y120.586 E7.78318
G1 X132.9 Y121.41 E7.81341
G1 X132.633 Y121.936 E7.83303
G1 X132.27 Y122.587 E7.85782
G1 X131.656 Y123.621 E7.89781
G1 X131.176 Y124.358 E7.92707
G1 X130.696 Y125.032 E7.95459
G1 X130.082 Y125.853 E7.98869
G1 X129.733 Y126.292 E8.00734
G1 X129.365 Y126.72 E8.02611
G1 X128.836 Y127.308 E8.05242
G1 X128.375 Y127.805 E8.07497
G1 X127.791 Y128.387 E8.10239
G1 X127.158 Y128.971 E8.13103
G1 X126.39 Y129.646 E8.16504
G1 X125.939 Y130.018 E8.18449
G1 X125.486 Y130.365 E8.20347
G1 X124.842 Y130.834 E8.22996
G1 X124.293 Y131.221 E8.2523
G1 X123.781 Y131.56 E8.27273
G1 X123.157 Y131.939 E8.29701
G1 X122.126 Y132.527 E8.33649
G1 X121.588 Y132.813 E8.35675
G1 X120.909 Y133.14 E8.38182
G1 X120 Y133.545 E8.41492
G1 X119.308 Y133.825 E8.43974
G1 X118.26 Y134.206 E8.47683
G1 X117.554 Y134.442 E8.50159
G1 X116.91 Y134.629 E8.5239
G1 X115.888 Y134.891 E8.55899
G1 X115.125 Y135.065 E8.58502
G1 X114.48 Y135.186 E8.60684
G1 X113.156 Y135.387 E8.65138
G1 X112.684 Y135.444 E8.6672
G1 X112.077 Y135.499 E8.68747
G1 X110.936 Y135.566 E8.72548
G1 X110.399 Y135.583 E8.74335
G1 X109.759 Y135.584 E8.76464
G1 X108.924 Y135.56 E8.79242
G1 X108.11 Y135.516 E8.81954
G1 X107.491 Y135.46 E8.84021
G1 X106.594 Y135.353 E8.87026
G1 X105.817 Y135.241 E8.89637
G1 X105.176 Y135.123 E8.91804
G1 X104.197 Y134.912 E8.95135
G1 X103.44 Y134.728 E8.97726
G1 X102.82 Y134.551 E8.99871
G1 X101.472 Y134.118 E9.0458
G1 X101.127 Y133.996 E9.05797
G1 X100.463 Y133.735 E9.0817
G1 X99.415 Y133.283 E9.11966
G1 X98.59 Y132.9 E9.14991
G1 X98.064 Y132.633 E9.16953
G1 X97.418 Y132.273 E9.19413
G1 X96.381 Y131.658 E9.23423
G1 X95.629 Y131.168 E9.26408
G1 X94.747 Y130.535 E9.30019
G1 X94.179 Y130.108 E9.32383
G1 X93.72 Y129.742 E9.34335
G1 X93.289 Y129.372 E9.36224
G1 X92.7 Y128.843 E9.38858
G1 X92.202 Y128.382 E9.41115
G1 X91.606 Y127.784 E9.43923
G1 X91.023 Y127.151 E9.46785
G1 X90.388 Y126.43 E9.49981
G1 X89.997 Y125.957 E9.52022
G1 X89.536 Y125.351 E9.54554
G1 X88.822 Y124.354 E9.58633
G1 X88.429 Y123.765 E9.60988
G1 X88.061 Y123.157 E9.63352
G1 X87.473 Y122.126 E9.67299
G1 X87.187 Y121.588 E9.69326
G1 X86.86 Y120.909 E9.71832
G1 X86.455 Y120 E9.75142
G1 X86.175 Y119.308 E9.77625
G1 X85.794 Y118.26 E9.81334
G1 X85.558 Y117.554 E9.8381
G1 X85.371 Y116.91 E9.8604
G1 X85.109 Y115.888 E9.89549
G1 X84.935 Y115.125 E9.92152
G1 X84.814 Y114.48 E9.94335
G1 X84.664 Y113.518 E9.97573
G1 X84.556 Y112.677 E10.00394
G1 X84.499 Y112.063 E10.02444
G1 X84.449 Y111.259 E10.05124
G1 X84.417 Y110.395 E10.07999
G1 X84.416 Y109.755 E10.10128
G1 X84.44 Y108.923 E10.12896
G1 X84.484 Y108.11 E10.15604
G1 X84.54 Y107.491 E10.17672
G1 X84.647 Y106.594 E10.20676
G1 X84.759 Y105.817 E10.23287
G1 X84.877 Y105.176 E10.25455
G1 X85.088 Y104.197 E10.28786
G1 X85.268 Y103.454 E10.31329
G1 X85.449 Y102.818 E10.33528
G1 X85.775 Y101.793 E10.37105
G1 X86.001 Y101.137 E10.39413
G1 X86.264 Y100.464 E10.41816
G1 X86.717 Y99.414 E10.4562
G1 X87.1 Y98.59 E10.48642
G1 X87.367 Y98.064 E10.50604
G1 X87.674 Y97.507 E10.52719
G1 X87.928 Y97.069 E10.54403
G1 X88.388 Y96.305 E10.5737
G1 X88.828 Y95.635 E10.60036
G1 X89.307 Y94.963 E10.6278
G1 X89.899 Y94.171 E10.66069
G1 X90.266 Y93.71 E10.68029
G1 X90.694 Y93.215 E10.70205
G1 X91.564 Y92.261 E10.745
G1 X92.214 Y91.608 E10.77564
G0 F6000 X92.485 Y91.902
G1 F1200 X93.325 Y91.133 E10.81352
G1 X93.873 Y90.655 E10.83771
G1 X94.341 Y90.271 E10.85784
G1 X94.804 Y89.918 E10.87721
G1 X95.389 Y89.492 E10.90128
G1 X95.941 Y89.103 E10.92374
G1 X96.422 Y88.784 E10.94293
G1 X97.032 Y88.413 E10.96668
G1 X98.033 Y87.841 E11.00502
G1 X98.556 Y87.562 E11.02474
G1 X99.257 Y87.224 E11.05062
G1 X100.167 Y86.819 E11.08375
G1 X100.821 Y86.555 E11.10721
G1 X101.869 Y86.173 E11.14431
G1 X102.569 Y85.938 E11.16887
G1 X103.189 Y85.759 E11.19033
G1 X104.211 Y85.497 E11.22542
G1 X104.961 Y85.325 E11.25102
G1 X105.582 Y85.209 E11.27203
G1 X106.544 Y85.059 E11.30441
G1 X107.364 Y84.954 E11.33191
G1 X107.948 Y84.9 E11.35141
G1 X108.76 Y84.849 E11.37847
G1 X109.613 Y84.817 E11.40687
G1 X110.229 Y84.816 E11.42735
G1 X111.064 Y84.84 E11.45514
G1 X111.866 Y84.883 E11.48185
G1 X112.461 Y84.937 E11.50172
G1 X113.358 Y85.044 E11.53177
G1 X114.123 Y85.155 E11.55748
G1 X114.74 Y85.268 E11.57834
G1 X115.719 Y85.479 E11.61165
G1 X116.462 Y85.66 E11.63709
G1 X117.059 Y85.83 E11.65773
G1 X118.082 Y86.155 E11.69343
G1 X118.74 Y86.382 E11.71658
G1 X119.379 Y86.632 E11.7394
G1 X120.427 Y87.084 E11.77736
G1 X121.239 Y87.462 E11.80716
G1 X121.745 Y87.718 E11.82602
G1 X122.292 Y88.02 E11.8468
G1 X122.73 Y88.274 E11.86364
G1 X123.477 Y88.724 E11.89264
G1 X124.127 Y89.15 E11.91849
G1 X124.802 Y89.631 E11.94606
G1 X125.611 Y90.237 E11.97968
G1 X126.045 Y90.583 E11.99814
G1 X126.511 Y90.986 E12.01863
G1 X127.472 Y91.863 E12.0619
G1 X128.092 Y92.48 E12.091
G1 X128.854 Y93.311 E12.1285
G1 X129.341 Y93.869 E12.15313
G1 X129.72 Y94.33 E12.17298
G1 X130.129 Y94.869 E12.19548
G1 X130.82 Y95.831 E12.23488
G1 X131.167 Y96.346 E12.25553
G1 X131.506 Y96.896 E12.27702
G1 X131.888 Y97.552 E12.30227
G1 X132.216 Y98.137 E12.32458
G1 X132.455 Y98.59 E12.34161
G1 X132.775 Y99.254 E12.36613
G1 X133.18 Y100.163 E12.39923
G1 X133.449 Y100.829 E12.42311
G1 X133.83 Y101.877 E12.4602
G1 X134.062 Y102.569 E12.48448
G1 X134.241 Y103.189 E12.50594
G1 X134.503 Y104.211 E12.54103
G1 X134.677 Y104.973 E12.56703
G1 X134.791 Y105.584 E12.5877
G1 X134.94 Y106.54 E12.61988
G1 X135.04 Y107.309 E12.64568
G1 X135.097 Y107.919 E12.66605
G1 X135.166 Y109.09 E12.70507
G1 X135.183 Y109.617 E12.7226
G1 X135.184 Y110.234 E12.74313
G1 X135.161 Y111.047 E12.77018
G1 X135.116 Y111.871 E12.79762
G1 X135.064 Y112.455 E12.81713
G1 X134.958 Y113.348 E12.84704
G1 X134.844 Y114.132 E12.87339
G1 X134.733 Y114.734 E12.89375
G1 X134.525 Y115.702 E12.92668
G1 X134.343 Y116.454 E12.95241
G1 X134.17 Y117.061 E12.9734
G1 X133.844 Y118.086 E13.00918
G1 X133.622 Y118.73 E13.03183
G1 X133.369 Y119.378 E13.05497
G1 X132.916 Y120.428 E13.09301
G1 X132.538 Y121.239 E13.12277
G1 X132.282 Y121.745 E13.14163
G1 X131.926 Y122.383 E13.16593
G1 X131.312 Y123.417 E13.20592
G1 X130.85 Y124.126 E13.23407
G1 X130.207 Y125.023 E13.27078
G1 X129.763 Y125.612 E13.29531
G1 X129.426 Y126.035 E13.3133
G1 X129.067 Y126.453 E13.33162
G1 X128.542 Y127.036 E13.35772
G1 X128.081 Y127.533 E13.38027
G1 X127.519 Y128.093 E13.40665
G1 X126.675 Y128.867 E13.44474
G1 X126.127 Y129.345 E13.46893
G1 X125.693 Y129.703 E13.48764
G1 X125.25 Y130.042 E13.50619
G1 X124.612 Y130.507 E13.53245
G1 X124.063 Y130.894 E13.55479
G1 X123.57 Y131.22 E13.57445
G1 X122.959 Y131.591 E13.59822
G1 X121.928 Y132.179 E13.6377
G1 X121.41 Y132.455 E13.65722
G1 X120.746 Y132.775 E13.68174
G1 X119.837 Y133.18 E13.71484
G1 X119.171 Y133.449 E13.73873
