;FLAVOR:Marlin
;TIME:2404
;Filament used: 2.99121m
;Layer height: 0.28
;MINX:95.201
;MINY:95.201
;MINZ:0.28
;MAXX:124.799
;MAXY:124.799
;MAXZ:29.96
;Generated with Cura_SteamEngine 5.2.0
M82 ;absolute extrusion mode
; Ender 3 Custom Start G-code
G92 E0 ; Reset Extruder
G28 ; Home all axes
M104 S175 ; Start heating up the nozzle most of the way
M190 S60 ; Start heating the bed, wait until target temperature reached
M109 S200 ; Finish heating the nozzle
G1 Z2.0 F3000 ; Move Z Axis up little to prevent scratching of Heat Bed
G1 X0.1 Y20 Z0.3 F5000.0 ; Move to start position
G1 X0.1 Y200.0 Z0.3 F1500.0 E15 ; Draw the first line
G1 X0.4 Y200.0 Z0.3 F5000.0 ; Move to side a little
G1 X0.4 Y20 Z0.3 F1500.0 E30 ; Draw the second line
G92 E0 ; Reset Extruder
G1 Z2.0 F3000 ; Move Z Axis up little to prevent scratching of Heat Bed
G1 X5 Y20 Z0.3 F5000.0 ; Move over to prevent blob squish
G92 E0
G92 E0
G1 F1500 E-6.5
;LAYER_COUNT:107
;LAYER:0
M107
;MESH:cylinder4.stl
G0 F6000 X108.323 Y124.302 Z0.28
;TYPE:WALL-INNER
G1 F1500 E0
G1 F1200 X109.071 Y124.37 E0.03497
G1 X109.437 Y124.389 E0.05204
G1 X110.183 Y124.398 E0.08678
G1 X110.93 Y124.37 E0.12159
G1 X111.674 Y124.302 E0.15637
G1 X112.037 Y124.255 E0.17342
G1 X112.589 Y124.165 E0.19946
G1 X112.934 Y124.098 E0.21583
G1 X113.667 Y123.926 E0.25088
G1 X114.196 Y123.776 E0.27649
G1 X114.542 Y123.666 E0.29339
G1 X115.047 Y123.485 E0.31837
G1 X115.719 Y123.214 E0.35211
G1 X116.204 Y122.994 E0.37691
G1 X116.68 Y122.756 E0.40169
G1 X116.984 Y122.593 E0.41775
G1 X117.584 Y122.24 E0.45017
G1 X118.16 Y121.864 E0.4822
G1 X118.57 Y121.57 E0.50569
G1 X118.969 Y121.266 E0.52905
G1 X119.476 Y120.842 E0.55982
G1 X119.836 Y120.516 E0.58244
G1 X120.182 Y120.181 E0.60486
G1 X120.516 Y119.836 E0.62722
G1 X120.842 Y119.477 E0.6498
G1 X121.267 Y118.967 E0.68072
G1 X121.768 Y118.299 E0.7196
G1 X122.056 Y117.874 E0.7435
G1 X122.238 Y117.588 E0.75929
G1 X122.592 Y116.984 E0.79189
G1 X122.756 Y116.68 E0.80797
G1 X122.994 Y116.205 E0.83271
G1 X123.214 Y115.722 E0.85743
G1 X123.485 Y115.051 E0.89112
G1 X123.671 Y114.527 E0.91701
G1 X123.773 Y114.199 E0.93301
G1 X123.924 Y113.667 E0.95876
G1 X124.095 Y112.945 E0.99331
G1 X124.165 Y112.592 E1.01006
G1 X124.255 Y112.04 E1.03611
G1 X124.302 Y111.677 E1.05315
G1 X124.37 Y110.929 E1.08813
G1 X124.389 Y110.563 E1.10519
G1 X124.398 Y109.815 E1.14002
G1 X124.37 Y109.07 E1.17474
G1 X124.302 Y108.325 E1.20957
G1 X124.255 Y107.964 E1.22652
G1 X124.165 Y107.411 E1.25261
G1 X124.098 Y107.066 E1.26898
G1 X123.925 Y106.333 E1.30405
G1 X123.776 Y105.804 E1.32964
G1 X123.666 Y105.457 E1.34659
G1 X123.485 Y104.952 E1.37157
G1 X123.214 Y104.281 E1.40526
G1 X122.994 Y103.796 E1.43006
G1 X122.756 Y103.32 E1.45484
G1 X122.593 Y103.016 E1.47091
G1 X122.24 Y102.416 E1.50332
G1 X121.864 Y101.839 E1.53539
G1 X121.57 Y101.43 E1.55884
G1 X121.266 Y101.031 E1.5822
G1 X120.842 Y100.524 E1.61298
G1 X120.516 Y100.164 E1.63559
G1 X120.181 Y99.818 E1.65802
G1 X119.836 Y99.484 E1.68038
G1 X119.477 Y99.159 E1.70293
G1 X118.967 Y98.733 E1.73387
G1 X118.299 Y98.232 E1.77275
G1 X117.874 Y97.944 E1.79665
G1 X117.59 Y97.764 E1.81231
G1 X116.984 Y97.408 E1.84504
G1 X116.68 Y97.244 E1.86112
G1 X116.205 Y97.006 E1.88586
G1 X115.722 Y96.786 E1.91057
G1 X115.051 Y96.515 E1.94427
G1 X114.527 Y96.329 E1.97016
G1 X114.199 Y96.227 E1.98616
G1 X113.667 Y96.076 E2.01191
G1 X112.945 Y95.905 E2.04646
G1 X112.592 Y95.835 E2.06321
G1 X112.04 Y95.745 E2.08926
G1 X111.677 Y95.698 E2.1063
G1 X110.929 Y95.63 E2.14127
G1 X110.563 Y95.611 E2.15834
G1 X109.817 Y95.602 E2.19308
G1 X109.07 Y95.63 E2.22789
G1 X108.326 Y95.698 E2.26268
G1 X107.963 Y95.745 E2.27972
G1 X107.411 Y95.835 E2.30576
G1 X107.066 Y95.902 E2.32213
G1 X106.333 Y96.075 E2.3572
G1 X105.804 Y96.224 E2.38279
G1 X105.458 Y96.334 E2.39969
G1 X104.953 Y96.515 E2.42467
G1 X104.281 Y96.786 E2.45841
G1 X103.796 Y97.006 E2.48321
G1 X103.32 Y97.244 E2.50799
G1 X103.016 Y97.407 E2.52405
G1 X102.416 Y97.76 E2.55647
G1 X101.839 Y98.136 E2.58854
G1 X101.43 Y98.43 E2.61199
G1 X101.031 Y98.734 E2.63535
G1 X100.524 Y99.158 E2.66612
G1 X100.164 Y99.484 E2.68874
G1 X99.818 Y99.819 E2.71117
G1 X99.484 Y100.164 E2.73352
G1 X99.159 Y100.523 E2.75607
G1 X98.733 Y101.033 E2.78702
G1 X98.232 Y101.701 E2.8259
G1 X97.944 Y102.126 E2.8498
G1 X97.762 Y102.412 E2.86559
G1 X97.408 Y103.016 E2.89819
G1 X97.244 Y103.32 E2.91427
G1 X97.006 Y103.795 E2.93901
G1 X96.786 Y104.278 E2.96372
G1 X96.515 Y104.949 E2.99742
G1 X96.329 Y105.473 E3.02331
G1 X96.227 Y105.801 E3.03931
G1 X96.076 Y106.333 E3.06506
G1 X95.905 Y107.055 E3.09961
G1 X95.835 Y107.408 E3.11636
G1 X95.745 Y107.96 E3.14241
G1 X95.698 Y108.323 E3.15945
G1 X95.63 Y109.071 E3.19442
G1 X95.611 Y109.437 E3.21149
G1 X95.602 Y110.185 E3.24632
G1 X95.63 Y110.93 E3.28104
G1 X95.698 Y111.674 E3.31583
G1 X95.745 Y112.037 E3.33287
G1 X95.835 Y112.589 E3.35891
G1 X95.902 Y112.934 E3.37528
G1 X96.074 Y113.667 E3.41034
G1 X96.224 Y114.196 E3.43594
G1 X96.334 Y114.542 E3.45284
G1 X96.515 Y115.047 E3.47782
G1 X96.786 Y115.719 E3.51156
G1 X97.006 Y116.204 E3.53636
G1 X97.243 Y116.679 E3.56108
G1 X97.407 Y116.984 E3.57721
G1 X97.76 Y117.584 E3.60962
G1 X98.135 Y118.159 E3.64159
G1 X98.43 Y118.57 E3.66514
G1 X98.733 Y118.968 E3.68844
G1 X99.158 Y119.476 E3.71928
G1 X99.484 Y119.836 E3.74189
G1 X99.819 Y120.182 E3.76432
G1 X100.163 Y120.515 E3.78661
G1 X100.523 Y120.842 E3.80926
G1 X101.032 Y121.266 E3.8401
G1 X101.701 Y121.768 E3.87905
G1 X102.126 Y122.056 E3.90296
G1 X102.41 Y122.236 E3.91861
G1 X103.016 Y122.592 E3.95134
G1 X103.32 Y122.756 E3.96742
G1 X103.795 Y122.994 E3.99216
G1 X104.278 Y123.214 E4.01688
G1 X104.949 Y123.485 E4.05057
G1 X105.473 Y123.671 E4.07646
G1 X105.801 Y123.773 E4.09246
G1 X106.333 Y123.924 E4.11821
G1 X107.055 Y124.095 E4.15276
G1 X107.408 Y124.165 E4.16952
G1 X107.96 Y124.255 E4.19556
G1 X108.323 Y124.302 E4.2126
G0 F6000 X108.279 Y124.7
;TYPE:WALL-OUTER
G1 F1200 X109.043 Y124.769 E4.24832
G1 X109.424 Y124.789 E4.26609
G1 X110.188 Y124.798 E4.30167
G1 X110.956 Y124.769 E4.33745
G1 X111.718 Y124.7 E4.37308
G1 X112.095 Y124.651 E4.39078
G1 X112.659 Y124.559 E4.41739
G1 X113.018 Y124.489 E4.43442
G1 X113.767 Y124.313 E4.47025
G1 X114.311 Y124.159 E4.49657
G1 X114.67 Y124.045 E4.51411
G1 X115.189 Y123.859 E4.53979
G1 X115.877 Y123.582 E4.57432
G1 X116.376 Y123.355 E4.59985
G1 X116.864 Y123.111 E4.62525
G1 X117.18 Y122.942 E4.64194
G1 X117.795 Y122.58 E4.67517
G1 X118.386 Y122.194 E4.70804
G1 X118.808 Y121.892 E4.7322
G1 X119.219 Y121.578 E4.75629
G1 X119.738 Y121.144 E4.78779
G1 X120.109 Y120.808 E4.8111
G1 X120.465 Y120.464 E4.83415
G1 X120.808 Y120.11 E4.8571
G1 X121.144 Y119.739 E4.88041
G1 X121.579 Y119.218 E4.91201
G1 X121.788 Y118.948 E4.92791
G1 X122.095 Y118.529 E4.9521
G1 X122.39 Y118.094 E4.97657
G1 X122.58 Y117.796 E4.99303
G1 X122.94 Y117.18 E5.02625
G1 X123.111 Y116.865 E5.04294
G1 X123.355 Y116.377 E5.06834
G1 X123.582 Y115.88 E5.09379
G1 X123.859 Y115.193 E5.12828
G1 X124.051 Y114.653 E5.15497
G1 X124.157 Y114.313 E5.17155
G1 X124.311 Y113.768 E5.19792
G1 X124.486 Y113.03 E5.23324
G1 X124.559 Y112.663 E5.25066
G1 X124.651 Y112.098 E5.27732
G1 X124.7 Y111.721 E5.29502
G1 X124.769 Y110.957 E5.33074
G1 X124.789 Y110.576 E5.3485
G1 X124.798 Y109.81 E5.38417
G1 X124.769 Y109.044 E5.41987
G1 X124.7 Y108.281 E5.45554
G1 X124.651 Y107.906 E5.47315
G1 X124.559 Y107.341 E5.49981
G1 X124.489 Y106.982 E5.51684
G1 X124.313 Y106.233 E5.55267
G1 X124.159 Y105.689 E5.57899
G1 X124.045 Y105.329 E5.59658
G1 X123.859 Y104.81 E5.62225
G1 X123.582 Y104.123 E5.65674
G1 X123.355 Y103.624 E5.68227
G1 X123.111 Y103.136 E5.70767
G1 X122.942 Y102.82 E5.72436
G1 X122.58 Y102.205 E5.75759
G1 X122.194 Y101.613 E5.7905
G1 X121.892 Y101.192 E5.81462
G1 X121.578 Y100.781 E5.83871
G1 X121.144 Y100.262 E5.87021
G1 X120.808 Y99.891 E5.89352
G1 X120.464 Y99.535 E5.91657
G1 X120.11 Y99.192 E5.93952
G1 X119.739 Y98.857 E5.96279
G1 X119.218 Y98.421 E5.99443
G1 X118.948 Y98.212 E6.01033
G1 X118.529 Y97.905 E6.03451
G1 X118.094 Y97.61 E6.05899
G1 X117.798 Y97.422 E6.07532
G1 X117.18 Y97.06 E6.10867
G1 X116.865 Y96.889 E6.12536
G1 X116.377 Y96.645 E6.15076
G1 X115.88 Y96.418 E6.1762
G1 X115.193 Y96.141 E6.2107
G1 X114.653 Y95.949 E6.23738
G1 X114.313 Y95.843 E6.25397
G1 X113.768 Y95.689 E6.28034
G1 X113.03 Y95.514 E6.31565
G1 X112.663 Y95.441 E6.33308
G1 X112.098 Y95.349 E6.35973
G1 X111.721 Y95.3 E6.37744
G1 X110.957 Y95.231 E6.41316
G1 X110.576 Y95.211 E6.43092
G1 X109.812 Y95.202 E6.4665
G1 X109.044 Y95.231 E6.50229
G1 X108.282 Y95.3 E6.53791
G1 X107.905 Y95.349 E6.55561
G1 X107.341 Y95.441 E6.58222
G1 X106.982 Y95.511 E6.59926
G1 X106.233 Y95.687 E6.63508
G1 X105.689 Y95.841 E6.66141
G1 X105.33 Y95.955 E6.67895
G1 X104.811 Y96.141 E6.70462
G1 X104.123 Y96.418 E6.73915
G1 X103.624 Y96.645 E6.76468
G1 X103.136 Y96.889 E6.79009
G1 X102.82 Y97.058 E6.80677
G1 X102.205 Y97.42 E6.84
G1 X101.613 Y97.806 E6.87291
G1 X101.192 Y98.108 E6.89704
G1 X100.781 Y98.422 E6.92112
G1 X100.262 Y98.856 E6.95262
G1 X99.891 Y99.192 E6.97593
G1 X99.535 Y99.536 E6.99898
G1 X99.192 Y99.89 E7.02193
G1 X98.857 Y100.261 E7.04521
G1 X98.421 Y100.782 E7.07684
G1 X98.212 Y101.052 E7.09274
G1 X97.905 Y101.471 E7.11693
G1 X97.61 Y101.906 E7.1414
G1 X97.42 Y102.204 E7.15786
G1 X97.06 Y102.82 E7.19108
G1 X96.889 Y103.135 E7.20777
G1 X96.645 Y103.623 E7.23318
G1 X96.418 Y104.12 E7.25862
G1 X96.141 Y104.807 E7.29311
G1 X95.949 Y105.347 E7.3198
G1 X95.843 Y105.687 E7.33638
G1 X95.689 Y106.232 E7.36275
G1 X95.514 Y106.97 E7.39807
G1 X95.441 Y107.337 E7.41549
G1 X95.349 Y107.902 E7.44215
G1 X95.3 Y108.279 E7.45985
G1 X95.231 Y109.043 E7.49557
G1 X95.211 Y109.424 E7.51334
G1 X95.202 Y110.19 E7.54901
G1 X95.231 Y110.956 E7.5847
G1 X95.3 Y111.718 E7.62033
G1 X95.349 Y112.095 E7.63803
G1 X95.441 Y112.659 E7.66464
G1 X95.511 Y113.018 E7.68167
G1 X95.687 Y113.767 E7.7175
G1 X95.841 Y114.311 E7.74382
G1 X95.955 Y114.67 E7.76136
G1 X96.141 Y115.189 E7.78704
G1 X96.418 Y115.877 E7.82157
G1 X96.645 Y116.376 E7.8471
G1 X96.888 Y116.863 E7.87244
G1 X97.058 Y117.18 E7.88919
G1 X97.42 Y117.795 E7.92242
G1 X97.805 Y118.385 E7.95522
G1 X98.108 Y118.808 E7.97945
G1 X98.421 Y119.218 E8.00347
G1 X98.856 Y119.738 E8.03504
G1 X99.192 Y120.109 E8.05835
G1 X99.536 Y120.465 E8.0814
G1 X99.889 Y120.807 E8.10429
G1 X100.261 Y121.144 E8.12766
G1 X100.781 Y121.578 E8.1592
G1 X101.052 Y121.788 E8.17516
G1 X101.471 Y122.095 E8.19935
G1 X101.906 Y122.39 E8.22382
G1 X102.202 Y122.578 E8.24015
G1 X102.82 Y122.94 E8.2735
G1 X103.135 Y123.111 E8.29019
G1 X103.623 Y123.355 E8.31559
G1 X104.12 Y123.582 E8.34104
G1 X104.807 Y123.859 E8.37553
G1 X105.347 Y124.051 E8.40222
G1 X105.687 Y124.157 E8.4188
G1 X106.232 Y124.311 E8.44517
G1 X106.97 Y124.486 E8.48049
G1 X107.337 Y124.559 E8.49791
G1 X107.902 Y124.651 E8.52457
G1 X108.279 Y124.7 E8.54227
G0 F6000 X108.363 Y123.944
;TYPE:SKIN
G1 F1200 X109.096 Y124.01 E8.57654
G1 X109.448 Y124.029 E8.59295
G1 X110.177 Y124.037 E8.6269
G1 X110.908 Y124.01 E8.66096
G1 X111.634 Y123.944 E8.69491
G1 X111.983 Y123.899 E8.71129
G1 X112.523 Y123.81 E8.73678
G1 X112.856 Y123.744 E8.75258
G1 X113.577 Y123.576 E8.78706
G1 X114.093 Y123.43 E8.81203
G1 X114.426 Y123.325 E8.82828
G1 X114.917 Y123.149 E8.85257
G1 X115.577 Y122.883 E8.88571
G1 X116.048 Y122.668 E8.90982
G1 X116.514 Y122.436 E8.93405
G1 X116.807 Y122.279 E8.94953
G1 X117.394 Y121.933 E8.98126
G1 X117.958 Y121.566 E9.01259
G1 X118.355 Y121.282 E9.03532
G1 X118.744 Y120.985 E9.05811
G1 X119.239 Y120.57 E9.08819
G1 X119.591 Y120.252 E9.11028
G1 X119.927 Y119.927 E9.13205
G1 X120.253 Y119.591 E9.15385
G1 X120.572 Y119.238 E9.176
G1 X120.985 Y118.741 E9.20609
G1 X121.181 Y118.489 E9.22096
G1 X121.474 Y118.09 E9.24401
G1 X121.755 Y117.675 E9.26734
G1 X121.932 Y117.398 E9.28265
G1 X122.276 Y116.807 E9.31449
G1 X122.436 Y116.514 E9.33004
G1 X122.668 Y116.048 E9.35428
G1 X122.883 Y115.579 E9.3783
G1 X123.148 Y114.921 E9.41133
G1 X123.334 Y114.401 E9.43705
G1 X123.574 Y113.574 E9.47714
G1 X123.743 Y112.867 E9.51099
G1 X123.81 Y112.529 E9.52704
G1 X123.899 Y111.989 E9.55252
G1 X123.944 Y111.637 E9.56905
G1 X124.01 Y110.903 E9.60336
G1 X124.029 Y110.55 E9.61982
G1 X124.037 Y109.821 E9.65377
G1 X124.01 Y109.093 E9.68769
G1 X123.944 Y108.365 E9.72173
G1 X123.899 Y108.017 E9.73807
G1 X123.81 Y107.475 E9.76364
G1 X123.744 Y107.144 E9.77936
G1 X123.576 Y106.425 E9.81374
G1 X123.324 Y105.571 E9.8552
G1 X123.149 Y105.081 E9.87943
G1 X122.883 Y104.424 E9.91244
G1 X122.668 Y103.952 E9.93659
G1 X122.436 Y103.486 E9.96083
G1 X122.28 Y103.193 E9.97628
G1 X121.934 Y102.606 E10.00801
G1 X121.567 Y102.043 E10.0393
G1 X121.28 Y101.646 E10.06211
G1 X120.983 Y101.256 E10.08494
G1 X120.57 Y100.763 E10.11489
G1 X120.252 Y100.411 E10.13698
G1 X119.925 Y100.073 E10.15888
G1 X119.591 Y99.747 E10.18061
G1 X119.24 Y99.43 E10.20263
G1 X118.741 Y99.013 E10.23291
G1 X118.491 Y98.819 E10.24765
G1 X118.09 Y98.526 E10.27077
G1 X117.679 Y98.248 E10.29388
G1 X117.403 Y98.073 E10.30909
G1 X116.807 Y97.723 E10.34128
G1 X116.514 Y97.564 E10.3568
G1 X116.05 Y97.332 E10.38096
G1 X115.581 Y97.117 E10.40498
G1 X114.924 Y96.853 E10.43795
G1 X114.414 Y96.672 E10.46315
G1 X114.096 Y96.573 E10.47866
G1 X113.576 Y96.426 E10.50382
G1 X112.866 Y96.257 E10.5378
G1 X112.53 Y96.19 E10.55376
G1 X111.989 Y96.101 E10.57929
G1 X111.637 Y96.056 E10.59581
G1 X110.904 Y95.99 E10.63008
G1 X110.551 Y95.971 E10.64654
G1 X109.823 Y95.963 E10.68044
G1 X109.092 Y95.99 E10.71451
G1 X108.366 Y96.056 E10.74845
G1 X108.017 Y96.101 E10.76484
G1 X107.477 Y96.19 E10.79032
G1 X107.144 Y96.256 E10.80613
G1 X106.424 Y96.424 E10.84055
G1 X105.921 Y96.567 E10.8649
G1 X105.574 Y96.675 E10.88183
G1 X105.082 Y96.852 E10.90617
G1 X104.423 Y97.117 E10.93925
G1 X103.952 Y97.332 E10.96336
G1 X103.486 Y97.564 E10.9876
G1 X103.193 Y97.72 E11.00305
G1 X102.606 Y98.066 E11.03478
G1 X102.043 Y98.434 E11.0661
G1 X101.645 Y98.718 E11.08887
G1 X101.256 Y99.015 E11.11166
G1 X100.761 Y99.43 E11.14173
G1 X100.409 Y99.748 E11.16382
G1 X100.073 Y100.073 E11.18559
G1 X99.748 Y100.409 E11.20736
G1 X99.433 Y100.76 E11.22932
G1 X99.015 Y101.259 E11.25963
G1 X98.819 Y101.511 E11.27449
G1 X98.526 Y101.91 E11.29754
G1 X98.245 Y102.325 E11.32088
G1 X98.068 Y102.602 E11.33619
G1 X97.724 Y103.193 E11.36803
G1 X97.564 Y103.486 E11.38357
G1 X97.332 Y103.952 E11.40781
G1 X97.117 Y104.421 E11.43184
G1 X96.852 Y105.079 E11.46487
G1 X96.666 Y105.599 E11.49058
G1 X96.426 Y106.426 E11.53068
G1 X96.257 Y107.132 E11.56448
G1 X96.19 Y107.472 E11.58062
G1 X96.101 Y108.011 E11.60606
G1 X96.056 Y108.363 E11.62258
G1 X95.99 Y109.098 E11.65694
G1 X95.971 Y109.451 E11.67341
G1 X95.963 Y110.179 E11.70731
G1 X95.975 Y110.529 E11.72361
G1 X95.99 Y110.907 E11.74123
G1 X96.056 Y111.634 E11.77522
G1 X96.101 Y111.983 E11.79161
G1 X96.19 Y112.523 E11.81709
G1 X96.256 Y112.856 E11.8329
G1 X96.424 Y113.577 E11.86737
G1 X96.57 Y114.093 E11.89234
G1 X96.675 Y114.425 E11.90855
G1 X96.852 Y114.917 E11.9329
G1 X97.117 Y115.577 E11.96602
G1 X97.332 Y116.047 E11.99008
G1 X97.721 Y116.808 E12.02988
G1 X98.065 Y117.394 E12.06152
G1 X98.433 Y117.955 E12.09276
G1 X98.718 Y118.355 E12.11563
G1 X99.014 Y118.741 E12.13828
G1 X99.43 Y119.237 E12.16843
G1 X99.748 Y119.588 E12.19048
G1 X100.076 Y119.927 E12.21244
G1 X100.408 Y120.251 E12.23405
G1 X100.76 Y120.57 E12.25617
G1 X101.257 Y120.984 E12.28629
G1 X101.51 Y121.181 E12.30122
G1 X101.91 Y121.474 E12.3243
G1 X102.322 Y121.754 E12.3475
G1 X102.597 Y121.928 E12.36265
G1 X103.193 Y122.277 E12.39481
G1 X103.486 Y122.436 E12.41034
G1 X103.952 Y122.668 E12.43458
G1 X104.421 Y122.883 E12.4586
G1 X105.079 Y123.148 E12.49163
G1 X105.583 Y123.328 E12.51655
G1 X106.425 Y123.574 E12.5574
G1 X107.134 Y123.743 E12.59133
G1 X107.47 Y123.81 E12.60729
G1 X108.011 Y123.899 E12.63282
G1 X108.363 Y123.944 E12.64934
G0 F6000 X108.321 Y124.2
G0 X105.719 Y123.58
G0 X104.05 Y122.923
G0 X101.845 Y121.744
G0 X102.186 Y121.42
G1 F1200 X98.579 Y117.812 E12.8869
G0 F6000 X98.192 Y118.062
G0 X97.325 Y116.618
G0 X97.741 Y116.409
G1 F1200 X103.601 Y122.268 E13.27276
G0 F6000 X103.395 Y122.681
G0 X104.487 Y123.189
G0 X104.66 Y122.762
