;FLAVOR:Marlin
;TIME:1310
;Filament used: 0.782963m
;Layer height: 0.28
;MINX:95.2
;MINY:95.2
;MINZ:0.28
;MAXX:125.644
;MAXY:125.665
;MAXZ:30.111
;Generated with Cura_SteamEngine 5.2.0
M82 ;absolute extrusion mode
; Ender 3 Custom Start G-code
G92 E0 ; Reset Extruder
G28 ; Home all axes
M104 S175 ; Start heating up the nozzle most of the way
M190 S60 ; Start heating the bed, wait until target temperature reached
M109 S200 ; Finish heating the nozzle
G1 Z2.0 F3000 ; Move Z Axis up little to prevent scratching of Heat Bed
G1 X0.1 Y20 Z0.3 F5000.0 ; Move to start position
G1 X0.1 Y200.0 Z0.3 F1500.0 E15 ; Draw the first line
G1 X0.4 Y200.0 Z0.3 F5000.0 ; Move to side a little
G1 X0.4 Y20 Z0.3 F1500.0 E30 ; Draw the second line
G92 E0 ; Reset Extruder
G1 Z2.0 F3000 ; Move Z Axis up little to prevent scratching of Heat Bed
G1 X5 Y20 Z0.3 F5000.0 ; Move over to prevent blob squish
G92 E0
G92 E0
G1 F1500 E-6.5
;LAYER_COUNT:107
;LAYER:0
M107
;MESH:Cylinder3.stl
G0 F6000 X108.894 Y124.763 Z0.28
;TYPE:WALL-OUTER
G1 F1500 E0
G1 F1200 X109.63 Y124.8 E0.03431
G1 X110.368 Y124.8 E0.06868
G1 X111.106 Y124.763 E0.10309
G1 X111.839 Y124.689 E0.13739
G1 X112.57 Y124.579 E0.17181
G1 X113.292 Y124.431 E0.20613
G1 X114.008 Y124.25 E0.24052
G1 X114.699 Y124.037 E0.27419
G1 X115.407 Y123.78 E0.30926
G1 X116.085 Y123.494 E0.34353
G1 X116.751 Y123.173 E0.37795
G1 X117.4 Y122.819 E0.41238
G1 X118.029 Y122.435 E0.44669
G1 X118.64 Y122.02 E0.48108
G1 X119.227 Y121.575 E0.51538
G1 X119.791 Y121.1 E0.54972
G1 X120.333 Y120.597 E0.58415
G1 X120.849 Y120.068 E0.61856
G1 X121.336 Y119.516 E0.65284
G1 X121.797 Y118.938 E0.68726
G1 X122.228 Y118.339 E0.72163
G1 X122.629 Y117.718 E0.75605
G1 X122.996 Y117.081 E0.79028
G1 X123.334 Y116.423 E0.82472
G1 X123.637 Y115.751 E0.85905
G1 X123.912 Y115.049 E0.89416
G1 X124.141 Y114.365 E0.92774
G1 X124.343 Y113.648 E0.96243
G1 X124.506 Y112.933 E0.99658
G1 X124.634 Y112.205 E1.031
G1 X124.725 Y111.474 E1.0653
G1 X124.781 Y110.736 E1.09976
G1 X124.799 Y109.999 E1.13409
G1 X124.781 Y109.262 E1.16842
G1 X124.725 Y108.526 E1.20279
G1 X124.634 Y107.793 E1.23718
G1 X124.506 Y107.067 E1.27151
G1 X124.341 Y106.346 E1.30595
G1 X124.143 Y105.638 E1.34018
G1 X123.908 Y104.937 E1.37461
G1 X123.637 Y104.251 E1.40895
G1 X123.334 Y103.577 E1.44336
G1 X122.996 Y102.919 E1.47781
G1 X122.627 Y102.28 E1.51217
G1 X122.228 Y101.661 E1.54646
G1 X121.797 Y101.06 E1.5809
G1 X121.338 Y100.484 E1.61519
G1 X120.849 Y99.93 E1.6496
G1 X120.335 Y99.403 E1.68388
G1 X119.79 Y98.898 E1.71848
G1 X119.227 Y98.427 E1.75266
G1 X118.638 Y97.98 E1.78709
G1 X118.029 Y97.565 E1.8214
G1 X117.4 Y97.181 E1.85572
G1 X116.751 Y96.827 E1.89014
G1 X116.085 Y96.506 E1.92457
G1 X115.406 Y96.22 E1.95887
G1 X114.699 Y95.961 E1.99393
G1 X114.009 Y95.75 E2.02753
G1 X113.292 Y95.569 E2.06197
G1 X112.57 Y95.421 E2.09628
G1 X111.839 Y95.311 E2.13071
G1 X111.106 Y95.237 E2.16501
G1 X110.368 Y95.201 E2.19942
G1 X109.632 Y95.2 E2.23369
G1 X108.896 Y95.237 E2.268
G1 X108.161 Y95.311 E2.3024
G1 X107.432 Y95.421 E2.33673
G1 X106.708 Y95.569 E2.37114
G1 X106.005 Y95.746 E2.40489
G1 X105.288 Y95.966 E2.43982
G1 X104.596 Y96.22 E2.47414
G1 X103.915 Y96.506 E2.50854
G1 X103.249 Y96.827 E2.54296
G1 X102.602 Y97.179 E2.57726
G1 X101.973 Y97.565 E2.61162
G1 X101.362 Y97.98 E2.64602
G1 X100.777 Y98.424 E2.68021
G1 X100.207 Y98.9 E2.71479
G1 X99.665 Y99.403 E2.74922
G1 X99.151 Y99.93 E2.7835
G1 X98.662 Y100.484 E2.81791
G1 X98.203 Y101.06 E2.85221
G1 X97.772 Y101.661 E2.88664
G1 X97.373 Y102.28 E2.92093
G1 X97.004 Y102.919 E2.95529
G1 X96.666 Y103.577 E2.98974
G1 X96.363 Y104.251 E3.02415
G1 X96.092 Y104.937 E3.05849
G1 X95.857 Y105.638 E3.09292
G1 X95.657 Y106.35 E3.12736
G1 X95.494 Y107.067 E3.1616
G1 X95.366 Y107.793 E3.19592
G1 X95.275 Y108.526 E3.23032
G1 X95.219 Y109.262 E3.26469
G1 X95.201 Y109.999 E3.29902
G1 X95.219 Y110.736 E3.33334
G1 X95.275 Y111.472 E3.36771
G1 X95.366 Y112.205 E3.40211
G1 X95.494 Y112.931 E3.43643
G1 X95.659 Y113.652 E3.47088
G1 X95.855 Y114.35 E3.50463
G1 X96.093 Y115.063 E3.53963
G1 X96.363 Y115.749 E3.57396
G1 X96.666 Y116.423 E3.60837
G1 X97.002 Y117.079 E3.64269
G1 X97.371 Y117.718 E3.67705
G1 X97.772 Y118.337 E3.71139
G1 X98.203 Y118.938 E3.74583
G1 X98.662 Y119.514 E3.78013
G1 X99.151 Y120.068 E3.81454
G1 X99.667 Y120.597 E3.84895
G1 X100.207 Y121.1 E3.88331
G1 X100.771 Y121.573 E3.91758
G1 X101.36 Y122.02 E3.95201
G1 X101.969 Y122.433 E3.98628
G1 X102.6 Y122.819 E4.02072
G1 X103.249 Y123.174 E4.05517
G1 X103.913 Y123.494 E4.08949
G1 X104.607 Y123.787 E4.12457
G1 X105.286 Y124.032 E4.15818
G1 X105.992 Y124.25 E4.19258
G1 X106.706 Y124.431 E4.22688
G1 X107.43 Y124.579 E4.26129
G1 X108.159 Y124.689 E4.29562
G1 X108.894 Y124.763 E4.33002
G0 F6000 X109.64 Y124.44
;TYPE:SKIN
G1 F1200 X110.357 Y124.44 E4.36341
G1 X111.077 Y124.403 E4.39698
G1 X111.793 Y124.331 E4.43049
G1 X112.505 Y124.224 E4.46401
G1 X113.211 Y124.078 E4.49758
G1 X113.91 Y123.903 E4.53113
G1 X114.583 Y123.696 E4.56392
G1 X115.273 Y123.444 E4.59813
G1 X115.935 Y123.165 E4.63158
G1 X116.586 Y122.852 E4.66521
G1 X117.219 Y122.508 E4.69876
G1 X117.834 Y122.132 E4.73232
G1 X118.43 Y121.727 E4.76588
G1 X119.002 Y121.294 E4.79928
G1 X119.552 Y120.83 E4.83279
G1 X120.08 Y120.339 E4.86636
G1 X120.584 Y119.821 E4.90002
G1 X121.059 Y119.284 E4.9334
G1 X121.51 Y118.721 E4.96699
G1 X121.93 Y118.136 E5.00052
G1 X122.321 Y117.53 E5.0341
G1 X122.678 Y116.909 E5.06746
G1 X123.009 Y116.266 E5.10113
G1 X123.305 Y115.612 E5.13456
G1 X123.579 Y114.913 E5.16952
G1 X123.795 Y114.259 E5.20159
G1 X123.993 Y113.558 E5.23551
G1 X124.152 Y112.861 E5.2688
G1 X124.278 Y112.15 E5.30242
G1 X124.366 Y111.437 E5.33587
G1 X124.421 Y110.719 E5.3694
G1 X124.438 Y109.999 E5.40294
G1 X124.421 Y109.281 E5.43638
G1 X124.366 Y108.562 E5.46996
G1 X124.278 Y107.846 E5.50355
G1 X124.152 Y107.14 E5.53694
G1 X123.994 Y106.448 E5.57
G1 X123.799 Y105.744 E5.60401
G1 X123.571 Y105.061 E5.63754
G1 X123.305 Y104.391 E5.67111
G1 X123.009 Y103.735 E5.70462
G1 X122.679 Y103.093 E5.73823
G1 X122.323 Y102.475 E5.77144
G1 X121.93 Y101.864 E5.80527
G1 X121.509 Y101.279 E5.83883
G1 X121.061 Y100.716 E5.87233
G1 X120.584 Y100.177 E5.90585
G1 X120.082 Y99.661 E5.93937
G1 X119.55 Y99.168 E5.97314
G1 X119.003 Y98.71 E6.00636
G1 X118.428 Y98.273 E6.03999
G1 X117.835 Y97.87 E6.07338
G1 X117.22 Y97.494 E6.10694
G1 X116.586 Y97.148 E6.14057
G1 X115.936 Y96.835 E6.17417
G1 X115.274 Y96.556 E6.20762
G1 X114.585 Y96.303 E6.2418
G1 X113.912 Y96.097 E6.27457
G1 X113.211 Y95.922 E6.30821
G1 X112.506 Y95.776 E6.34174
G1 X111.795 Y95.669 E6.37522
G1 X111.079 Y95.597 E6.40872
G1 X110.359 Y95.562 E6.44229
G1 X109.642 Y95.561 E6.47568
G1 X108.926 Y95.597 E6.50906
G1 X108.207 Y95.669 E6.54271
G1 X107.498 Y95.776 E6.57609
G1 X106.79 Y95.922 E6.60975
G1 X106.116 Y96.09 E6.6421
G1 X105.404 Y96.307 E6.67676
G1 X104.729 Y96.556 E6.71026
G1 X104.065 Y96.835 E6.7438
G1 X103.414 Y97.149 E6.77745
G1 X102.782 Y97.492 E6.81094
G1 X102.168 Y97.868 E6.84446
G1 X101.573 Y98.273 E6.87798
G1 X101.002 Y98.706 E6.91134
G1 X100.447 Y99.171 E6.94506
G1 X99.917 Y99.661 E6.97867
G1 X99.416 Y100.175 E7.01209
G1 X98.937 Y100.716 E7.04574
G1 X98.491 Y101.277 E7.07911
G1 X98.07 Y101.864 E7.11275
G1 X97.681 Y102.468 E7.1462
G1 X97.322 Y103.091 E7.17968
G1 X96.991 Y103.734 E7.21336
G1 X96.695 Y104.39 E7.24687
G1 X96.425 Y105.075 E7.28115
G1 X96.202 Y105.744 E7.31399
G1 X96.007 Y106.438 E7.34756
G1 X95.848 Y107.139 E7.38103
G1 X95.722 Y107.846 E7.41447
G1 X95.634 Y108.563 E7.4481
G1 X95.579 Y109.28 E7.48159
G1 X95.562 Y109.999 E7.51508
G1 X95.579 Y110.719 E7.54861
G1 X95.634 Y111.437 E7.58214
G1 X95.722 Y112.15 E7.61559
G1 X95.848 Y112.859 E7.64913
G1 X96.006 Y113.55 E7.68213
G1 X96.199 Y114.244 E7.71567
G1 X96.431 Y114.94 E7.74984
G1 X96.695 Y115.61 E7.78337
G1 X96.991 Y116.265 E7.81684
G1 X97.32 Y116.906 E7.85039
G1 X97.675 Y117.523 E7.88353
G1 X98.07 Y118.135 E7.91745
G1 X98.489 Y118.719 E7.95092
G1 X98.937 Y119.282 E7.98442
G1 X99.416 Y119.821 E8.018
G1 X99.921 Y120.34 E8.05172
G1 X100.445 Y120.831 E8.08516
G1 X100.994 Y121.29 E8.11848
G1 X101.57 Y121.727 E8.15214
G1 X102.163 Y122.129 E8.1855
G1 X102.781 Y122.507 E8.21924
G1 X103.414 Y122.854 E8.25285
G1 X104.055 Y123.162 E8.28596
G1 X104.738 Y123.451 E8.3205
G1 X105.399 Y123.691 E8.35324
G1 X106.089 Y123.902 E8.38684
G1 X106.788 Y124.078 E8.4204
G1 X107.494 Y124.224 E8.45397
G1 X108.205 Y124.331 E8.48745
G1 X108.922 Y124.403 E8.52101
G1 X109.64 Y124.44 E8.55449
G1 F1500 E2.05449
G0 F6000 X108.829 Y125.625
G0 X107.28 Y125.432
G0 X105.758 Y125.084
G0 X104.278 Y124.586
G0 X103.126 Y124.066
G0 X101.502 Y123.162
G0 X101.928 Y121.727
G1 F1500 E8.55449
G1 F1200 X98.266 Y118.065 E8.79563
G1 F1500 E2.29563
G0 F6000 X98.012 Y118.246
G0 X97.27 Y117.043
G0 X97.41 Y116.643
G1 F1500 E8.79563
G1 F1200 X103.364 Y122.598 E9.18775
G0 F6000 X103.213 Y122.872
G0 X103.885 Y123.313
G0 X104.439 Y123.107
G1 F1200 X96.892 Y115.559 E9.68476
G0 F6000 X96.543 Y114.645
G1 F1200 X105.361 Y123.463 E10.26544
G0 F6000 X106.181 Y123.718
G1 F1200 X96.29 Y113.826 E10.91682
G0 F6000 X96.102 Y113.072
G1 F1200 X106.932 Y123.902 E11.62999
G0 F6000 X107.637 Y124.042
G1 F1200 X95.963 Y112.368 E12.39874
G0 F6000 X95.868 Y111.708
G1 F1200 X108.298 Y124.137 E13.21725
G0 F6000 X108.928 Y124.201
G1 F1200 X95.806 Y111.08 E14.08132
G0 F6000 X95.772 Y110.48
G1 F1200 X109.525 Y124.233 E14.98698
G0 F6000 X110.097 Y124.239
G1 F1200 X95.763 Y109.905 E15.9309
G0 F6000 X95.776 Y109.353
G1 F1200 X110.647 Y124.223 E16.91015
G0 F6000 X111.179 Y124.19
G1 F1200 X95.813 Y108.824 E17.92202
G0 F6000 X95.866 Y108.311
G1 F1200 X111.693 Y124.138 E18.96426
G0 F6000 X112.188 Y124.068
G1 F1200 X95.931 Y107.81 E20.03484
G0 F6000 X96.016 Y107.33
G1 F1200 X112.67 Y123.984 E21.13154
G0 F6000 X113.139 Y123.887
G1 F1200 X96.115 Y106.863 E22.2526
G0 F6000 X96.223 Y106.406
G1 F1200 X113.592 Y123.774 E23.39634
G0 F6000 X114.036 Y123.653
G1 F1200 X96.347 Y105.964 E24.56119
G0 F6000 X96.482 Y105.533
G1 F1200 X114.469 Y123.52 E25.74567
G0 F6000 X114.885 Y123.371
G1 F1200 X96.625 Y105.11 E26.94815
G0 F6000 X96.785 Y104.704
G1 F1200 X115.296 Y123.216 E28.16717
G0 F6000 X115.694 Y123.048
G1 F1200 X96.951 Y104.305 E29.40142
G0 F6000 X97.127 Y103.915
G1 F1200 X116.082 Y122.871 E30.64968
G0 F6000 X116.465 Y122.687
G1 F1200 X97.315 Y103.538 E31.9107
G0 F6000 X97.509 Y103.166
G1 F1200 X116.832 Y122.489 E33.18316
G0 F6000 X117.195 Y122.287
G1 F1200 X97.715 Y102.806 E34.46598
G0 F6000 X97.927 Y102.453
G1 F1200 X117.546 Y122.072 E35.75792
G0 F6000 X117.89 Y121.85
G1 F1200 X98.149 Y102.109 E37.0579
G0 F6000 X98.379 Y101.773
G1 F1200 X118.226 Y121.62 E38.36486
G0 F6000 X118.552 Y121.381
G1 F1200 X98.616 Y101.445 E39.67768
G0 F6000 X98.864 Y101.127
G1 F1200 X118.875 Y121.137 E40.99541
G0 F6000 X119.182 Y120.879
G1 F1200 X99.116 Y100.813 E42.31679
G0 F6000 X99.382 Y100.513
G1 F1200 X119.485 Y120.616 E43.6406
G0 F6000 X119.778 Y120.343
G1 F1200 X99.652 Y100.218 E44.9659
G0 F6000 X99.931 Y99.931
G1 F1200 X120.066 Y120.066 E46.29183
G0 F6000 X120.344 Y119.778
G1 F1200 X100.219 Y99.653 E47.61709
G0 F6000 X100.513 Y99.381
G1 F1200 X120.614 Y119.483 E48.94081
G0 F6000 X120.88 Y119.183
G1 F1200 X100.817 Y99.12 E50.26199
G0 F6000 X101.125 Y98.862
G1 F1200 X121.133 Y118.871 E51.57959
G0 F6000 X121.382 Y118.554
G1 F1200 X101.447 Y98.618 E52.89237
G0 F6000 X101.772 Y98.378
G1 F1200 X121.619 Y118.225 E54.19933
G0 F6000 X121.85 Y117.89
G1 F1200 X102.109 Y98.149 E55.49931
G0 F6000 X102.453 Y97.927
G1 F1200 X122.072 Y117.546 E56.79126
G0 F6000 X122.283 Y117.192
G1 F1200 X102.804 Y97.712 E58.07401
G0 F6000 X103.167 Y97.51
G1 F1200 X122.489 Y116.833 E59.34643
G0 F6000 X122.683 Y116.461
G1 F1200 X103.535 Y97.312 E60.6074
G0 F6000 X103.916 Y97.128
G1 F1200 X122.871 Y116.083 E61.85561
G0 F6000 X123.047 Y115.693
G1 F1200 X104.305 Y96.951 E63.08981
G0 F6000 X104.703 Y96.783
G1 F1200 X123.214 Y115.294 E64.30879
G0 F6000 X123.373 Y114.888
G1 F1200 X105.112 Y96.627 E65.51131
G0 F6000 X105.529 Y96.478
G1 F1200 X123.515 Y114.465 E66.69575
G0 F6000 X123.65 Y114.033
G1 F1200 X105.962 Y96.346 E67.8605
G0 F6000 X106.406 Y96.224
G1 F1200 X123.775 Y113.593 E69.00428
G0 F6000 X123.883 Y113.135
G1 F1200 X106.86 Y96.112 E70.12527
G0 F6000 X107.328 Y96.015
G1 F1200 X123.982 Y112.668 E71.22193
G0 F6000 X124.067 Y112.188
G1 F1200 X107.811 Y95.931 E72.29245
G0 F6000 X108.306 Y95.861
G1 F1200 X124.133 Y111.688 E73.33469
G0 F6000 X124.185 Y111.174
G1 F1200 X108.819 Y95.808 E74.34656
G0 F6000 X109.352 Y95.776
G1 F1200 X124.222 Y110.645 E75.32575
G0 F6000 X124.235 Y110.092
G1 F1200 X109.904 Y95.762 E76.26943
G0 F6000 X110.476 Y95.768
G1 F1200 X124.225 Y109.518 E77.17486
G0 F6000 X124.192 Y108.919
G1 F1200 X111.071 Y95.798 E78.0389
G0 F6000 X111.7 Y95.861
G1 F1200 X124.13 Y108.291 E78.85744
G0 F6000 X124.035 Y107.63
G1 F1200 X112.362 Y95.957 E79.62613
G0 F6000 X113.067 Y96.097
G1 F1200 X123.897 Y106.927 E80.3393
G0 F6000 X123.71 Y106.174
G1 F1200 X113.816 Y96.28 E80.99084
G0 F6000 X114.638 Y96.537
G1 F1200 X123.458 Y105.356 E81.57162
G0 F6000 X123.106 Y104.438
G1 F1200 X115.562 Y96.894 E82.0684
G0 F6000 X115.682 Y96.606
G0 X116.788 Y97.128
G0 X116.637 Y97.404
G1 F1200 X122.588 Y103.354 E82.46025
G1 F1500 E75.96025
G0 F6000 X122.866 Y103.21
G0 X121.735 Y101.936
M104 S200
G1 F1500 E82.46025
G1 F1200 X118.073 Y98.274 E82.7014
G1 F1500 E76.2014
;MESH:NONMESH
G0 F300 X118.073 Y98.274 Z0.56
G0 F6000 X118.875 Y97.094
G0 X120.365 Y98.252
G0 X122 Y99.928
G0 X122.944 Y101.174
G0 X124.114 Y103.202
G0 X124.969 Y105.382
G0 X125.355 Y106.896
G0 X125.644 Y109.219
G0 X125.644 Y110.781
G0 X125.355 Y113.103
G0 X124.969 Y114.619
G0 X124.114 Y116.798
G0 X122.944 Y118.826
G0 X122 Y120.072
G0 X120.937 Y121.217
G0 X119.766 Y122.251
G0 X118.498 Y123.162
G0 X117.146 Y123.943
G0 X115.722 Y124.586
G0 X114.242 Y125.084
G0 X112.72 Y125.432
G0 X111.466 Y125.587
G0 X109.68 Y125.665
G0 X109.68 Y122.8
;TIME_ELAPSED:101.863918
;LAYER:1
M106 S85
;TYPE:WALL-INNER
;MESH:Cylinder3.stl
G1 F1500 E82.7014
G1 F1350 X110.318 Y122.8 E82.73111
G1 X110.956 Y122.768 E82.76085
G1 X111.59 Y122.704 E82.79053
G1 X112.22 Y122.609 E82.82019
G1 X112.845 Y122.481 E82.8499
G1 X113.468 Y122.324 E82.87982
G1 X114.063 Y122.14 E82.90882
G1 X114.677 Y121.917 E82.93923
G1 X115.262 Y121.67 E82.9688
G1 X115.838 Y121.393 E82.99856
G1 X116.4 Y121.087 E83.02836
G1 X116.945 Y120.754 E83.0581
G1 X117.472 Y120.395 E83.08779
G1 X117.977 Y120.012 E83.11731
G1 X118.466 Y119.601 E83.14705
G1 X118.936 Y119.165 E83.1769
G1 X119.382 Y118.708 E83.20664
G1 X119.803 Y118.23 E83.2363
G1 X120.202 Y117.729 E83.26612
G1 X120.575 Y117.211 E83.29584
G1 X120.921 Y116.676 E83.32551
G1 X121.239 Y116.124 E83.35517
G1 X121.532 Y115.553 E83.38506
G1 X121.798 Y114.965 E83.41511
G1 X122.031 Y114.368 E83.44495
G1 X122.229 Y113.777 E83.47397
G1 X122.402 Y113.157 E83.50394
G1 X122.548 Y112.526 E83.5341
G1 X122.655 Y111.909 E83.56326
G1 X122.736 Y111.264 E83.59353
G1 X122.782 Y110.638 E83.62276
G1 X122.799 Y109.999 E83.65252
G1 X122.782 Y109.362 E83.6822
G1 X122.733 Y108.728 E83.71181
G1 X122.655 Y108.09 E83.74173
G1 X122.545 Y107.464 E83.77133
G1 X122.402 Y106.839 E83.80119
G1 X122.231 Y106.226 E83.83082
G1 X122.028 Y105.623 E83.86045
G1 X121.794 Y105.029 E83.89017
G1 X121.532 Y104.445 E83.91998
G1 X121.239 Y103.877 E83.94974
G1 X120.919 Y103.322 E83.97957
G1 X120.574 Y102.786 E84.00925
G1 X120.201 Y102.267 E84.03901
G1 X119.805 Y101.769 E84.06864
G1 X119.382 Y101.29 E84.09839
G1 X118.938 Y100.835 E84.128
G1 X118.468 Y100.399 E84.15785
G1 X117.981 Y99.992 E84.1874
G1 X117.469 Y99.604 E84.21732
G1 X116.943 Y99.245 E84.24697
G1 X116.4 Y98.913 E84.2766
G1 X115.838 Y98.607 E84.3064
G1 X115.262 Y98.33 E84.33616
G1 X114.674 Y98.082 E84.36588
G1 X114.063 Y97.858 E84.39618
G1 X113.47 Y97.677 E84.42505
G1 X112.845 Y97.519 E84.45507
G1 X112.22 Y97.391 E84.48478
G1 X111.59 Y97.296 E84.51444
G1 X110.956 Y97.232 E84.54411
G1 X110.318 Y97.201 E84.57386
G1 X109.682 Y97.2 E84.60347
G1 X109.046 Y97.232 E84.63312
G1 X108.41 Y97.296 E84.66289
G1 X107.781 Y97.391 E84.69251
G1 X107.154 Y97.519 E84.72231
G1 X106.544 Y97.673 E84.7516
G1 X105.926 Y97.863 E84.78171
